( pcb2gcode 1.1.4 )

G94     ( Inches per minute feed rate. )
G20     ( Units == INCHES.             )
G90     ( Absolute coordinates.        )
S100  ( RPM spindle speed.           )
M3      ( Spindle on clockwise.        )

G64 P0.00500 ( set maximum deviation from commanded toolpath )

G04 P0 ( dwell for no time -- G64 should not smooth over this point )
G00 Z10.00000 ( retract )

G00 X2.78915 Y-0.66500 ( rapid move to begin. )
G01 Z-0.10000 F100.00000 ( plunge. )
G04 P0 ( dwell for no time -- G64 should not smooth over this point )
X2.78915 Y-0.66500
X2.78915 Y-0.66600
X2.78815 Y-0.66600
X2.78815 Y-0.66900
X2.78715 Y-0.66900
X2.78715 Y-0.67100
X2.78615 Y-0.67100
X2.78615 Y-0.67400
X2.78515 Y-0.67400
X2.78515 Y-0.67700
X2.78415 Y-0.67700
X2.78415 Y-0.68000
X2.78315 Y-0.68000
X2.78315 Y-0.68300
X2.78215 Y-0.68300
X2.78215 Y-0.68600
X2.78115 Y-0.68600
X2.78115 Y-0.68800
X2.78015 Y-0.68800
X2.78015 Y-0.68900
X2.77915 Y-0.68900
X2.77915 Y-0.69000
X2.77815 Y-0.69000
X2.77815 Y-0.69100
X2.77715 Y-0.69100
X2.77715 Y-0.69300
X2.77615 Y-0.69300
X2.77615 Y-0.69400
X2.77515 Y-0.69400
X2.77515 Y-0.69600
X2.77415 Y-0.69600
X2.77415 Y-0.69800
X2.77315 Y-0.69800
X2.77315 Y-0.70000
X2.77215 Y-0.70000
X2.77215 Y-0.70200
X2.77115 Y-0.70200
X2.77115 Y-0.70400
X2.77015 Y-0.70400
X2.77015 Y-0.70500
X2.76915 Y-0.70500
X2.76915 Y-0.70800
X2.76815 Y-0.70800
X2.76815 Y-0.71100
X2.76715 Y-0.71100
X2.76715 Y-0.71300
X2.76615 Y-0.71300
X2.76615 Y-0.71600
X2.76515 Y-0.71600
X2.76515 Y-0.71800
X2.76415 Y-0.71800
X2.76415 Y-0.72100
X2.76315 Y-0.72100
X2.76315 Y-0.73000
X2.76215 Y-0.73000
X2.76215 Y-0.73500
X2.76115 Y-0.73500
X2.76115 Y-0.75400
X2.76215 Y-0.75400
X2.76215 Y-0.75900
X2.76315 Y-0.75900
X2.76315 Y-0.76800
X2.76415 Y-0.76800
X2.76415 Y-0.77100
X2.76515 Y-0.77100
X2.76515 Y-0.77300
X2.76615 Y-0.77300
X2.76615 Y-0.77600
X2.76715 Y-0.77600
X2.76715 Y-0.77800
X2.76815 Y-0.77800
X2.76815 Y-0.78100
X2.76915 Y-0.78100
X2.76915 Y-0.78400
X2.77015 Y-0.78400
X2.77015 Y-0.78500
X2.77115 Y-0.78500
X2.77115 Y-0.78700
X2.77215 Y-0.78700
X2.77215 Y-0.78900
X2.77315 Y-0.78900
X2.77315 Y-0.79100
X2.77415 Y-0.79100
X2.77415 Y-0.79300
X2.77515 Y-0.79300
X2.77515 Y-0.79500
X2.77615 Y-0.79500
X2.77615 Y-0.79600
X2.77715 Y-0.79600
X2.77715 Y-0.79800
X2.77815 Y-0.79800
X2.77815 Y-0.79900
X2.77915 Y-0.79900
X2.77915 Y-0.80000
X2.78015 Y-0.80000
X2.78015 Y-0.80100
X2.78115 Y-0.80100
X2.78115 Y-0.80300
X2.78215 Y-0.80300
X2.78215 Y-0.80400
X2.78315 Y-0.80400
X2.78315 Y-0.80500
X2.78415 Y-0.80500
X2.78415 Y-0.80600
X2.78515 Y-0.80600
X2.78515 Y-0.80700
X2.78615 Y-0.80700
X2.78615 Y-0.80800
X2.78715 Y-0.80800
X2.78715 Y-0.80900
X2.78815 Y-0.80900
X2.78815 Y-0.81000
X2.78915 Y-0.81000
X2.78915 Y-0.81100
X2.79015 Y-0.81100
X2.79015 Y-0.81200
X2.79115 Y-0.81200
X2.79115 Y-0.81300
X2.79215 Y-0.81300
X2.79215 Y-0.81400
X2.79415 Y-0.81400
X2.79415 Y-0.81500
X2.79515 Y-0.81500
X2.79515 Y-0.81600
X2.79615 Y-0.81600
X2.79615 Y-0.81700
X2.79715 Y-0.81700
X2.79715 Y-0.81800
X2.79915 Y-0.81800
X2.79915 Y-0.81900
X2.80015 Y-0.81900
X2.80015 Y-0.82000
X2.80215 Y-0.82000
X2.80215 Y-0.82100
X2.80415 Y-0.82100
X2.80415 Y-0.82200
X2.80615 Y-0.82200
X2.80615 Y-0.82300
X2.80815 Y-0.82300
X2.80815 Y-0.82400
X2.81015 Y-0.82400
X2.81015 Y-0.82500
X2.81115 Y-0.82500
X2.81115 Y-0.82600
X2.81415 Y-0.82600
X2.81415 Y-0.82700
X2.81715 Y-0.82700
X2.81715 Y-0.82800
X2.81915 Y-0.82800
X2.81915 Y-0.82900
X2.82215 Y-0.82900
X2.82215 Y-0.83000
X2.82415 Y-0.83000
X2.82415 Y-0.83100
X2.82715 Y-0.83100
X2.82715 Y-0.83200
X2.83415 Y-0.83200
X2.83415 Y-0.83300
X2.83915 Y-0.83300
X2.83915 Y-0.83400
X2.84815 Y-0.83400
X2.84815 Y-0.83500
X2.85315 Y-0.83500
X2.85315 Y-0.83400
X2.86215 Y-0.83400
X2.86215 Y-0.83300
X2.86715 Y-0.83300
X2.86715 Y-0.83200
X2.87415 Y-0.83200
X2.87415 Y-0.83100
X2.87715 Y-0.83100
X2.87715 Y-0.83000
X2.87915 Y-0.83000
X2.87915 Y-0.82900
X2.88215 Y-0.82900
X2.88215 Y-0.82800
X2.88415 Y-0.82800
X2.88415 Y-0.82700
X2.88715 Y-0.82700
X2.88715 Y-0.82600
X2.89015 Y-0.82600
X2.89015 Y-0.82500
X2.89115 Y-0.82500
X2.89115 Y-0.82400
X2.89315 Y-0.82400
X2.89315 Y-0.82300
X2.89515 Y-0.82300
X2.89515 Y-0.82200
X2.89715 Y-0.82200
X2.89715 Y-0.82100
X2.89915 Y-0.82100
X2.89915 Y-0.82000
X2.90115 Y-0.82000
X2.90115 Y-0.81900
X2.90215 Y-0.81900
X2.90215 Y-0.81800
X2.90415 Y-0.81800
X2.90415 Y-0.81700
X2.90515 Y-0.81700
X2.90515 Y-0.81600
X2.90615 Y-0.81600
X2.90615 Y-0.81500
X2.90715 Y-0.81500
X2.90715 Y-0.81400
X2.90915 Y-0.81400
X2.90915 Y-0.81300
X2.91015 Y-0.81300
X2.91015 Y-0.81200
X2.91115 Y-0.81200
X2.91115 Y-0.81100
X2.91215 Y-0.81100
X2.91215 Y-0.81000
X2.91315 Y-0.81000
X2.91315 Y-0.80900
X2.91415 Y-0.80900
X2.91415 Y-0.80800
X2.91515 Y-0.80800
X2.91515 Y-0.80700
X2.91615 Y-0.80700
X2.91615 Y-0.80600
X2.91715 Y-0.80600
X2.91715 Y-0.80500
X2.91815 Y-0.80500
X2.91815 Y-0.80400
X2.91915 Y-0.80400
X2.91915 Y-0.80300
X2.92015 Y-0.80300
X2.92015 Y-0.80100
X2.92115 Y-0.80100
X2.92115 Y-0.80000
X2.92215 Y-0.80000
X2.92215 Y-0.79900
X2.92315 Y-0.79900
X2.92315 Y-0.79800
X2.92415 Y-0.79800
X2.92415 Y-0.79600
X2.92515 Y-0.79600
X2.92515 Y-0.79500
X2.92615 Y-0.79500
X2.92615 Y-0.79300
X2.92715 Y-0.79300
X2.92715 Y-0.79100
X2.92815 Y-0.79100
X2.92815 Y-0.78900
X2.92915 Y-0.78900
X2.92915 Y-0.78700
X2.93015 Y-0.78700
X2.93015 Y-0.78500
X2.93115 Y-0.78500
X2.93115 Y-0.78400
X2.93215 Y-0.78400
X2.93215 Y-0.78100
X2.93315 Y-0.78100
X2.93315 Y-0.77800
X2.93415 Y-0.77800
X2.93415 Y-0.77600
X2.93515 Y-0.77600
X2.93515 Y-0.77300
X2.93615 Y-0.77300
X2.93615 Y-0.77100
X2.93715 Y-0.77100
X2.93715 Y-0.76800
X2.93815 Y-0.76800
X2.93815 Y-0.76100
X2.93915 Y-0.76100
X2.93915 Y-0.75600
X2.94015 Y-0.75600
X2.94015 Y-0.74700
X2.94115 Y-0.74700
X2.94115 Y-0.74200
X2.94015 Y-0.74200
X2.94015 Y-0.73300
X2.93915 Y-0.73300
X2.93915 Y-0.72800
X2.93815 Y-0.72800
X2.93815 Y-0.72100
X2.93715 Y-0.72100
X2.93715 Y-0.71800
X2.93615 Y-0.71800
X2.93615 Y-0.71600
X2.93515 Y-0.71600
X2.93515 Y-0.71300
X2.93415 Y-0.71300
X2.93415 Y-0.71100
X2.93315 Y-0.71100
X2.93315 Y-0.70800
X2.93215 Y-0.70800
X2.93215 Y-0.70500
X2.93115 Y-0.70500
X2.93115 Y-0.70400
X2.93015 Y-0.70400
X2.93015 Y-0.70200
X2.92915 Y-0.70200
X2.92915 Y-0.70000
X2.92815 Y-0.70000
X2.92815 Y-0.69800
X2.92715 Y-0.69800
X2.92715 Y-0.69600
X2.92615 Y-0.69600
X2.92615 Y-0.69400
X2.92515 Y-0.69400
X2.92515 Y-0.69300
X2.92415 Y-0.69300
X2.92415 Y-0.69100
X2.92315 Y-0.69100
X2.92315 Y-0.69000
X2.92215 Y-0.69000
X2.92215 Y-0.68900
X2.92115 Y-0.68900
X2.92115 Y-0.68600
X2.92015 Y-0.68600
X2.92015 Y-0.68400
X2.91915 Y-0.68400
X2.91915 Y-0.68100
X2.91815 Y-0.68100
X2.91815 Y-0.67700
X2.91715 Y-0.67700
X2.91715 Y-0.67500
X2.91615 Y-0.67500
X2.91615 Y-0.67200
X2.91515 Y-0.67200
X2.91515 Y-0.66900
X2.91415 Y-0.66900
X2.91415 Y-0.66700
X2.91315 Y-0.66700
X2.91315 Y-0.66400
X2.91215 Y-0.66400
X2.91215 Y-0.66200
X2.91115 Y-0.66200
X2.91115 Y-0.65900
X2.91015 Y-0.65900
X2.91015 Y-0.65600
X2.79215 Y-0.65600
X2.79215 Y-0.65900
X2.79115 Y-0.65900
X2.79115 Y-0.66100
X2.79015 Y-0.66100
X2.79015 Y-0.66300
X2.78915 Y-0.66300
X2.78915 Y-0.66500
G04 P0 ( dwell for no time -- G64 should not smooth over this point )
G00 Z10.00000 ( retract )

G00 X2.91415 Y-0.66700 ( rapid move to begin. )
G01 Z-0.10000 F100.00000 ( plunge. )
G04 P0 ( dwell for no time -- G64 should not smooth over this point )
X2.91415 Y-0.66700
X2.91415 Y-0.66900
X2.91515 Y-0.66900
X2.91515 Y-0.67200
X2.91615 Y-0.67200
X2.91615 Y-0.67500
X2.91715 Y-0.67500
X2.91715 Y-0.67700
X2.91815 Y-0.67700
X2.91815 Y-0.68100
X2.91915 Y-0.68100
X2.91915 Y-0.68400
X2.92015 Y-0.68400
X2.92015 Y-0.68600
X2.92115 Y-0.68600
X2.92115 Y-0.68900
X2.92215 Y-0.68900
X2.92215 Y-0.69000
X2.92315 Y-0.69000
X2.92315 Y-0.69100
X2.92415 Y-0.69100
X2.92415 Y-0.69300
X2.92515 Y-0.69300
X2.92515 Y-0.69400
X2.92615 Y-0.69400
X2.92615 Y-0.69600
X2.92715 Y-0.69600
X2.92715 Y-0.69800
X2.92815 Y-0.69800
X2.92815 Y-0.70000
X2.92915 Y-0.70000
X2.92915 Y-0.70200
X2.93015 Y-0.70200
X2.93015 Y-0.70400
X2.93115 Y-0.70400
X2.93115 Y-0.70500
X2.93215 Y-0.70500
X2.93215 Y-0.70800
X2.93315 Y-0.70800
X2.93315 Y-0.71100
X2.93415 Y-0.71100
X2.93415 Y-0.71300
X2.93515 Y-0.71300
X2.93515 Y-0.71600
X2.93615 Y-0.71600
X2.93615 Y-0.71800
X2.93715 Y-0.71800
X2.93715 Y-0.72100
X2.93815 Y-0.72100
X2.93815 Y-0.72800
X2.93915 Y-0.72800
X2.93915 Y-0.73300
X2.94015 Y-0.73300
X2.94015 Y-0.74200
X2.94115 Y-0.74200
X2.94115 Y-0.74700
X2.94015 Y-0.74700
X2.94015 Y-0.75600
X2.93915 Y-0.75600
X2.93915 Y-0.76100
X2.93815 Y-0.76100
X2.93815 Y-0.76800
X2.93715 Y-0.76800
X2.93715 Y-0.77100
X2.93615 Y-0.77100
X2.93615 Y-0.77300
X2.93515 Y-0.77300
X2.93515 Y-0.77600
X2.93415 Y-0.77600
X2.93415 Y-0.77800
X2.93315 Y-0.77800
X2.93315 Y-0.78100
X2.93215 Y-0.78100
X2.93215 Y-0.78400
X2.93115 Y-0.78400
X2.93115 Y-0.78500
X2.93015 Y-0.78500
X2.93015 Y-0.78700
X2.92915 Y-0.78700
X2.92915 Y-0.78900
X2.92815 Y-0.78900
X2.92815 Y-0.79100
X2.92715 Y-0.79100
X2.92715 Y-0.79300
X2.92615 Y-0.79300
X2.92615 Y-0.79500
X2.92515 Y-0.79500
X2.92515 Y-0.79600
X2.92415 Y-0.79600
X2.92415 Y-0.79800
X2.92315 Y-0.79800
X2.92315 Y-0.79900
X2.92215 Y-0.79900
X2.92215 Y-0.80000
X2.92115 Y-0.80000
X2.92115 Y-0.80100
X2.92015 Y-0.80100
X2.92015 Y-0.80300
X2.91915 Y-0.80300
X2.91915 Y-0.80400
X2.91815 Y-0.80400
X2.91815 Y-0.80500
X2.91715 Y-0.80500
X2.91715 Y-0.80600
X2.91615 Y-0.80600
X2.91615 Y-0.80700
X2.91515 Y-0.80700
X2.91515 Y-0.80800
X2.91415 Y-0.80800
X2.91415 Y-0.80900
X2.91315 Y-0.80900
X2.91315 Y-0.81000
X2.91215 Y-0.81000
X2.91215 Y-0.81100
X2.91115 Y-0.81100
X2.91115 Y-0.81200
X2.91015 Y-0.81200
X2.91015 Y-0.81300
X2.90915 Y-0.81300
X2.90915 Y-0.81400
X2.90715 Y-0.81400
X2.90715 Y-0.81500
X2.90615 Y-0.81500
X2.90615 Y-0.81600
X2.90515 Y-0.81600
X2.90515 Y-0.81700
X2.90415 Y-0.81700
X2.90415 Y-0.81800
X2.90215 Y-0.81800
X2.90215 Y-0.81900
X2.90115 Y-0.81900
X2.90115 Y-0.82000
X2.89915 Y-0.82000
X2.89915 Y-0.82100
X2.89715 Y-0.82100
X2.89715 Y-0.82200
X2.89515 Y-0.82200
X2.89515 Y-0.82300
X2.89315 Y-0.82300
X2.89315 Y-0.82400
X2.89115 Y-0.82400
X2.89115 Y-0.82500
X2.89015 Y-0.82500
X2.89015 Y-0.82600
X2.88715 Y-0.82600
X2.88715 Y-0.82700
X2.88415 Y-0.82700
X2.88415 Y-0.82800
X2.88215 Y-0.82800
X2.88215 Y-0.82900
X2.87915 Y-0.82900
X2.87915 Y-0.83000
X2.87715 Y-0.83000
X2.87715 Y-0.83100
X2.87415 Y-0.83100
X2.87415 Y-0.83200
X2.86715 Y-0.83200
X2.86715 Y-0.83300
X2.86215 Y-0.83300
X2.86215 Y-0.83400
X2.85315 Y-0.83400
X2.85315 Y-0.83500
X2.84815 Y-0.83500
X2.84815 Y-0.83400
X2.83915 Y-0.83400
X2.83915 Y-0.83300
X2.83415 Y-0.83300
X2.83415 Y-0.83200
X2.82715 Y-0.83200
X2.82715 Y-0.83100
X2.82415 Y-0.83100
X2.82415 Y-0.83000
X2.82215 Y-0.83000
X2.82215 Y-0.82900
X2.81915 Y-0.82900
X2.81915 Y-0.82800
X2.81715 Y-0.82800
X2.81715 Y-0.82700
X2.81415 Y-0.82700
X2.81415 Y-0.82600
X2.81115 Y-0.82600
X2.81115 Y-0.82500
X2.81015 Y-0.82500
X2.81015 Y-0.82400
X2.80815 Y-0.82400
X2.80815 Y-0.82300
X2.80615 Y-0.82300
X2.80615 Y-0.82200
X2.80415 Y-0.82200
X2.80415 Y-0.82100
X2.80215 Y-0.82100
X2.80215 Y-0.82000
X2.80015 Y-0.82000
X2.80015 Y-0.81900
X2.79915 Y-0.81900
X2.79915 Y-0.81800
X2.79715 Y-0.81800
X2.79715 Y-0.81700
X2.79615 Y-0.81700
X2.79615 Y-0.81600
X2.79515 Y-0.81600
X2.79515 Y-0.81500
X2.79415 Y-0.81500
X2.79415 Y-0.81400
X2.79215 Y-0.81400
X2.79215 Y-0.81300
X2.79115 Y-0.81300
X2.79115 Y-0.81200
X2.79015 Y-0.81200
X2.79015 Y-0.81100
X2.78915 Y-0.81100
X2.78915 Y-0.81000
X2.78815 Y-0.81000
X2.78815 Y-0.80900
X2.78715 Y-0.80900
X2.78715 Y-0.80800
X2.78615 Y-0.80800
X2.78615 Y-0.80700
X2.78515 Y-0.80700
X2.78515 Y-0.80600
X2.78415 Y-0.80600
X2.78415 Y-0.80500
X2.78315 Y-0.80500
X2.78315 Y-0.80400
X2.78215 Y-0.80400
X2.78215 Y-0.80300
X2.78115 Y-0.80300
X2.78115 Y-0.80100
X2.78015 Y-0.80100
X2.78015 Y-0.80000
X2.77915 Y-0.80000
X2.77915 Y-0.79900
X2.77815 Y-0.79900
X2.77815 Y-0.79800
X2.77715 Y-0.79800
X2.77715 Y-0.79600
X2.77615 Y-0.79600
X2.77615 Y-0.79500
X2.77515 Y-0.79500
X2.77515 Y-0.79300
X2.77415 Y-0.79300
X2.77415 Y-0.79100
X2.77315 Y-0.79100
X2.77315 Y-0.78900
X2.77215 Y-0.78900
X2.77215 Y-0.78700
X2.77115 Y-0.78700
X2.77115 Y-0.78500
X2.77015 Y-0.78500
X2.77015 Y-0.78400
X2.76915 Y-0.78400
X2.76915 Y-0.78100
X2.76815 Y-0.78100
X2.76815 Y-0.77800
X2.76715 Y-0.77800
X2.76715 Y-0.77600
X2.76615 Y-0.77600
X2.76615 Y-0.77300
X2.76515 Y-0.77300
X2.76515 Y-0.77100
X2.76415 Y-0.77100
X2.76415 Y-0.76800
X2.76315 Y-0.76800
X2.76315 Y-0.75900
X2.76215 Y-0.75900
X2.76215 Y-0.75400
X2.76115 Y-0.75400
X2.76115 Y-0.73500
X2.76215 Y-0.73500
X2.76215 Y-0.73000
X2.76315 Y-0.73000
X2.76315 Y-0.72100
X2.76415 Y-0.72100
X2.76415 Y-0.71800
X2.76515 Y-0.71800
X2.76515 Y-0.71600
X2.76615 Y-0.71600
X2.76615 Y-0.71300
X2.76715 Y-0.71300
X2.76715 Y-0.71100
X2.76815 Y-0.71100
X2.76815 Y-0.70800
X2.76915 Y-0.70800
X2.76915 Y-0.70500
X2.77015 Y-0.70500
X2.77015 Y-0.70400
X2.77115 Y-0.70400
X2.77115 Y-0.70200
X2.77215 Y-0.70200
X2.77215 Y-0.70000
X2.77315 Y-0.70000
X2.77315 Y-0.69800
X2.77415 Y-0.69800
X2.77415 Y-0.69600
X2.77515 Y-0.69600
X2.77515 Y-0.69400
X2.77615 Y-0.69400
X2.77615 Y-0.69300
X2.77715 Y-0.69300
X2.77715 Y-0.69100
X2.77815 Y-0.69100
X2.77815 Y-0.69000
X2.77915 Y-0.69000
X2.77915 Y-0.68900
X2.78015 Y-0.68900
X2.78015 Y-0.68800
X2.78115 Y-0.68800
X2.78115 Y-0.68600
X2.78215 Y-0.68600
X2.78215 Y-0.68300
X2.78315 Y-0.68300
X2.78315 Y-0.68000
X2.78415 Y-0.68000
X2.78415 Y-0.67700
X2.78515 Y-0.67700
X2.78515 Y-0.67400
X2.78615 Y-0.67400
X2.78615 Y-0.67100
X2.78715 Y-0.67100
X2.78715 Y-0.66900
X2.78815 Y-0.66900
X2.78815 Y-0.66600
X2.78915 Y-0.66600
X2.78915 Y-0.66300
X2.79015 Y-0.66300
X2.79015 Y-0.66100
X2.79115 Y-0.66100
X2.79115 Y-0.65900
X2.79215 Y-0.65900
X2.79215 Y-0.65600
X2.57815 Y-0.65600
X2.57815 Y-0.65800
X2.57915 Y-0.65800
X2.57915 Y-0.65900
X2.58015 Y-0.65900
X2.58015 Y-0.66000
X2.58115 Y-0.66000
X2.58115 Y-0.66100
X2.58215 Y-0.66100
X2.58215 Y-0.66300
X2.58315 Y-0.66300
X2.58315 Y-0.66500
X2.58415 Y-0.66500
X2.58415 Y-0.66800
X2.58515 Y-0.66800
X2.58515 Y-0.67100
X2.58615 Y-0.67100
X2.58615 Y-0.67500
X2.58715 Y-0.67500
X2.58715 Y-0.68000
X2.58815 Y-0.68000
X2.58815 Y-0.69200
X2.58915 Y-0.69200
X2.58915 Y-0.85400
X2.58815 Y-0.85400
X2.58815 Y-0.86000
X2.58715 Y-0.86000
X2.58715 Y-0.86500
X2.58615 Y-0.86500
X2.58615 Y-0.86600
X2.58515 Y-0.86600
X2.58515 Y-0.86700
X2.58415 Y-0.86700
X2.58415 Y-0.86800
X2.58315 Y-0.86800
X2.58315 Y-0.87000
X2.58215 Y-0.87000
X2.58215 Y-0.87100
X2.58115 Y-0.87100
X2.58115 Y-0.87200
X2.58015 Y-0.87200
X2.58015 Y-0.87300
X2.57915 Y-0.87300
X2.57915 Y-0.87400
X2.57815 Y-0.87400
X2.57815 Y-0.87500
X2.57715 Y-0.87500
X2.57715 Y-0.87600
X2.57615 Y-0.87600
X2.57615 Y-0.87700
X2.57515 Y-0.87700
X2.57515 Y-0.87800
X2.57415 Y-0.87800
X2.57415 Y-0.87900
X2.57315 Y-0.87900
X2.57315 Y-0.88000
X2.57215 Y-0.88000
X2.57215 Y-0.88100
X2.57115 Y-0.88100
X2.57115 Y-0.88200
X2.57015 Y-0.88200
X2.57015 Y-0.88300
X2.56915 Y-0.88300
X2.56915 Y-0.88400
X2.56815 Y-0.88400
X2.56815 Y-0.88500
X2.56715 Y-0.88500
X2.56715 Y-0.88600
X2.56615 Y-0.88600
X2.56615 Y-0.88700
X2.56515 Y-0.88700
X2.56515 Y-0.88800
X2.56415 Y-0.88800
X2.56415 Y-0.88900
X2.56315 Y-0.88900
X2.56315 Y-0.89000
X2.56215 Y-0.89000
X2.56215 Y-0.89100
X2.56115 Y-0.89100
X2.56115 Y-0.89200
X2.56015 Y-0.89200
X2.56015 Y-0.89300
X2.55915 Y-0.89300
X2.55915 Y-0.89400
X2.55815 Y-0.89400
X2.55815 Y-0.89500
X2.55715 Y-0.89500
X2.55715 Y-0.89600
X2.55615 Y-0.89600
X2.55615 Y-0.89700
X2.55515 Y-0.89700
X2.55515 Y-0.89800
X2.55415 Y-0.89800
X2.55415 Y-0.89900
X2.55315 Y-0.89900
X2.55315 Y-0.90000
X2.55215 Y-0.90000
X2.55215 Y-0.90100
X2.55115 Y-0.90100
X2.55115 Y-0.90200
X2.55015 Y-0.90200
X2.55015 Y-0.90300
X2.54915 Y-0.90300
X2.54915 Y-0.90400
X2.54815 Y-0.90400
X2.54815 Y-0.90500
X2.54715 Y-0.90500
X2.54715 Y-0.90600
X2.54615 Y-0.90600
X2.54615 Y-0.90700
X2.54515 Y-0.90700
X2.54515 Y-0.90800
X2.54415 Y-0.90800
X2.54415 Y-0.90900
X2.54315 Y-0.90900
X2.54315 Y-0.91000
X2.54215 Y-0.91000
X2.54215 Y-0.91100
X2.54115 Y-0.91100
X2.54115 Y-0.91200
X2.54015 Y-0.91200
X2.54015 Y-0.91300
X2.53915 Y-0.91300
X2.53915 Y-0.91400
X2.53815 Y-0.91400
X2.53815 Y-0.91500
X2.53715 Y-0.91500
X2.53715 Y-0.91600
X2.53615 Y-0.91600
X2.53615 Y-0.91700
X2.53515 Y-0.91700
X2.53515 Y-0.91800
X2.53415 Y-0.91800
X2.53415 Y-0.91900
X2.53315 Y-0.91900
X2.53315 Y-0.92000
X2.53215 Y-0.92000
X2.53215 Y-0.92100
X2.53115 Y-0.92100
X2.53115 Y-0.92200
X2.53015 Y-0.92200
X2.53015 Y-0.92300
X2.52915 Y-0.92300
X2.52915 Y-0.92600
X2.52815 Y-0.92600
X2.52815 Y-0.92700
X2.52715 Y-0.92700
X2.52715 Y-0.93000
X2.52615 Y-0.93000
X2.52615 Y-0.93300
X2.52515 Y-0.93300
X2.52515 Y-0.93600
X2.52415 Y-0.93600
X2.52415 Y-0.93900
X2.52315 Y-0.93900
X2.52315 Y-0.94200
X2.52215 Y-0.94200
X2.52215 Y-0.94500
X2.52115 Y-0.94500
X2.52115 Y-0.94800
X2.52015 Y-0.94800
X2.52015 Y-0.95000
X2.52115 Y-0.95000
X2.52115 Y-0.95100
X2.52315 Y-0.95100
X2.52315 Y-0.95200
X2.52415 Y-0.95200
X2.52415 Y-0.95300
X2.52715 Y-0.95300
X2.52715 Y-0.95400
X2.53015 Y-0.95400
X2.53015 Y-0.95500
X2.72915 Y-0.95500
X2.72915 Y-0.95600
X2.73515 Y-0.95600
X2.73515 Y-0.95700
X2.74015 Y-0.95700
X2.74015 Y-0.95800
X2.74115 Y-0.95800
X2.74115 Y-0.95900
X2.74215 Y-0.95900
X2.74215 Y-0.96000
X2.74415 Y-0.96000
X2.74415 Y-0.96100
X2.74515 Y-0.96100
X2.74515 Y-0.96200
X2.74615 Y-0.96200
X2.74615 Y-0.96300
X2.74715 Y-0.96300
X2.74715 Y-0.96400
X2.74815 Y-0.96400
X2.74815 Y-0.96500
X2.74915 Y-0.96500
X2.74915 Y-0.96600
X2.75015 Y-0.96600
X2.75015 Y-0.96700
X2.75115 Y-0.96700
X2.75115 Y-0.96800
X2.75215 Y-0.96800
X2.75215 Y-0.96900
X2.75315 Y-0.96900
X2.75315 Y-0.97000
X2.75415 Y-0.97000
X2.75415 Y-0.97100
X2.75515 Y-0.97100
X2.75515 Y-0.97200
X2.75615 Y-0.97200
X2.75615 Y-0.97300
X2.75715 Y-0.97300
X2.75715 Y-0.97400
X2.75815 Y-0.97400
X2.75815 Y-0.97500
X2.75915 Y-0.97500
X2.75915 Y-0.97600
X2.76015 Y-0.97600
X2.76015 Y-0.97700
X2.76115 Y-0.97700
X2.76115 Y-0.97800
X2.76215 Y-0.97800
X2.76215 Y-0.97900
X2.76315 Y-0.97900
X2.76315 Y-0.98000
X2.76415 Y-0.98000
X2.76415 Y-0.98100
X2.76515 Y-0.98100
X2.76515 Y-0.98200
X2.76615 Y-0.98200
X2.76615 Y-0.98300
X2.76715 Y-0.98300
X2.76715 Y-0.98400
X2.76815 Y-0.98400
X2.76815 Y-0.98500
X2.76915 Y-0.98500
X2.76915 Y-0.98600
X2.77015 Y-0.98600
X2.77015 Y-0.98700
X2.77115 Y-0.98700
X2.77115 Y-0.98800
X2.77215 Y-0.98800
X2.77215 Y-0.98900
X2.77315 Y-0.98900
X2.77315 Y-0.99000
X2.77415 Y-0.99000
X2.77415 Y-0.99100
X2.77515 Y-0.99100
X2.77515 Y-0.99200
X2.77615 Y-0.99200
X2.77615 Y-0.99300
X2.77715 Y-0.99300
X2.77715 Y-0.99400
X2.77815 Y-0.99400
X2.77815 Y-0.99500
X2.77915 Y-0.99500
X2.77915 Y-0.99600
X2.78015 Y-0.99600
X2.78015 Y-0.99700
X2.78115 Y-0.99700
X2.78115 Y-0.99800
X2.78215 Y-0.99800
X2.78215 Y-0.99900
X2.78315 Y-0.99900
X2.78315 Y-1.00000
X2.78415 Y-1.00000
X2.78415 Y-1.00100
X2.78515 Y-1.00100
X2.78515 Y-1.00200
X2.78615 Y-1.00200
X2.78615 Y-1.00300
X2.78715 Y-1.00300
X2.78715 Y-1.00400
X2.78815 Y-1.00400
X2.78815 Y-1.00500
X2.78915 Y-1.00500
X2.78915 Y-1.00600
X2.79015 Y-1.00600
X2.79015 Y-1.00700
X2.79115 Y-1.00700
X2.79115 Y-1.00800
X2.79215 Y-1.00800
X2.79215 Y-1.00900
X2.79315 Y-1.00900
X2.79315 Y-1.01000
X2.79415 Y-1.01000
X2.79415 Y-1.01100
X2.79515 Y-1.01100
X2.79515 Y-1.01200
X2.79615 Y-1.01200
X2.79615 Y-1.01300
X2.79715 Y-1.01300
X2.79715 Y-1.01400
X2.79815 Y-1.01400
X2.79815 Y-1.01500
X2.79915 Y-1.01500
X2.79915 Y-1.01600
X2.80015 Y-1.01600
X2.80015 Y-1.01700
X2.80115 Y-1.01700
X2.80115 Y-1.01800
X2.80215 Y-1.01800
X2.80215 Y-1.01900
X2.80315 Y-1.01900
X2.80315 Y-1.02000
X2.80415 Y-1.02000
X2.80415 Y-1.02100
X2.80515 Y-1.02100
X2.80515 Y-1.02200
X2.80615 Y-1.02200
X2.80615 Y-1.02300
X2.80715 Y-1.02300
X2.80715 Y-1.02400
X2.80815 Y-1.02400
X2.80815 Y-1.02500
X2.80915 Y-1.02500
X2.80915 Y-1.02600
X2.81015 Y-1.02600
X2.81015 Y-1.02700
X2.81115 Y-1.02700
X2.81115 Y-1.02800
X2.81215 Y-1.02800
X2.81215 Y-1.02900
X2.81315 Y-1.02900
X2.81315 Y-1.03000
X2.81415 Y-1.03000
X2.81415 Y-1.03100
X2.81515 Y-1.03100
X2.81515 Y-1.03200
X2.81615 Y-1.03200
X2.81615 Y-1.03300
X2.81715 Y-1.03300
X2.81715 Y-1.03400
X2.81815 Y-1.03400
X2.81815 Y-1.03500
X2.81915 Y-1.03500
X2.81915 Y-1.03600
X2.82015 Y-1.03600
X2.82015 Y-1.03700
X2.82115 Y-1.03700
X2.82115 Y-1.03800
X2.82215 Y-1.03800
X2.82215 Y-1.03900
X2.82315 Y-1.03900
X2.82315 Y-1.04000
X2.82415 Y-1.04000
X2.82415 Y-1.04100
X2.82515 Y-1.04100
X2.82515 Y-1.04200
X2.82615 Y-1.04200
X2.82615 Y-1.04300
X2.82715 Y-1.04300
X2.82715 Y-1.04400
X2.82815 Y-1.04400
X2.82815 Y-1.04500
X2.82915 Y-1.04500
X2.82915 Y-1.04600
X2.83015 Y-1.04600
X2.83015 Y-1.04700
X2.83115 Y-1.04700
X2.83115 Y-1.04800
X2.83215 Y-1.04800
X2.83215 Y-1.04900
X2.83315 Y-1.04900
X2.83315 Y-1.05000
X2.83415 Y-1.05000
X2.83415 Y-1.05100
X2.83515 Y-1.05100
X2.83515 Y-1.05200
X2.83615 Y-1.05200
X2.83615 Y-1.05300
X2.83715 Y-1.05300
X2.83715 Y-1.05400
X2.83815 Y-1.05400
X2.83815 Y-1.05500
X2.83915 Y-1.05500
X2.83915 Y-1.05600
X2.84015 Y-1.05600
X2.84015 Y-1.05700
X2.84115 Y-1.05700
X2.84115 Y-1.05800
X2.84215 Y-1.05800
X2.84215 Y-1.05900
X2.84315 Y-1.05900
X2.84315 Y-1.06000
X2.84415 Y-1.06000
X2.84415 Y-1.06100
X2.84515 Y-1.06100
X2.84515 Y-1.06200
X2.84615 Y-1.06200
X2.84615 Y-1.06300
X2.84715 Y-1.06300
X2.84715 Y-1.06400
X2.84815 Y-1.06400
X2.84815 Y-1.06500
X2.84915 Y-1.06500
X2.84915 Y-1.06600
X2.85015 Y-1.06600
X2.85015 Y-1.06700
X2.85115 Y-1.06700
X2.85115 Y-1.06800
X2.85215 Y-1.06800
X2.85215 Y-1.06900
X2.85315 Y-1.06900
X2.85315 Y-1.07000
X2.85415 Y-1.07000
X2.85415 Y-1.07100
X2.85515 Y-1.07100
X2.85515 Y-1.07200
X2.85615 Y-1.07200
X2.85615 Y-1.07300
X2.85715 Y-1.07300
X2.85715 Y-1.07400
X2.85815 Y-1.07400
X2.85815 Y-1.07500
X2.85915 Y-1.07500
X2.85915 Y-1.07600
X2.86015 Y-1.07600
X2.86015 Y-1.07700
X2.86115 Y-1.07700
X2.86115 Y-1.07800
X2.86215 Y-1.07800
X2.86215 Y-1.07900
X2.86315 Y-1.07900
X2.86315 Y-1.08000
X2.86415 Y-1.08000
X2.86415 Y-1.08100
X2.86515 Y-1.08100
X2.86515 Y-1.08200
X2.86615 Y-1.08200
X2.86615 Y-1.08300
X2.86715 Y-1.08300
X2.86715 Y-1.08400
X2.86815 Y-1.08400
X2.86815 Y-1.08500
X2.86915 Y-1.08500
X2.86915 Y-1.08600
X2.87015 Y-1.08600
X2.87015 Y-1.08700
X2.87115 Y-1.08700
X2.87115 Y-1.08800
X2.87215 Y-1.08800
X2.87215 Y-1.08900
X2.87315 Y-1.08900
X2.87315 Y-1.09000
X2.87415 Y-1.09000
X2.87415 Y-1.09100
X2.87515 Y-1.09100
X2.87515 Y-1.09200
X2.87615 Y-1.09200
X2.87615 Y-1.09300
X2.87715 Y-1.09300
X2.87715 Y-1.09400
X2.87815 Y-1.09400
X2.87815 Y-1.09500
X2.87915 Y-1.09500
X2.87915 Y-1.09600
X2.88015 Y-1.09600
X2.88015 Y-1.09700
X2.88115 Y-1.09700
X2.88115 Y-1.09800
X2.88215 Y-1.09800
X2.88215 Y-1.09900
X2.88315 Y-1.09900
X2.88315 Y-1.10000
X2.88415 Y-1.10000
X2.88415 Y-1.10100
X2.88515 Y-1.10100
X2.88515 Y-1.10200
X2.88615 Y-1.10200
X2.88615 Y-1.10300
X2.88715 Y-1.10300
X2.88715 Y-1.10400
X2.88815 Y-1.10400
X2.88815 Y-1.10500
X2.88915 Y-1.10500
X2.88915 Y-1.10600
X2.89015 Y-1.10600
X2.89015 Y-1.10700
X2.89115 Y-1.10700
X2.89115 Y-1.10800
X2.89215 Y-1.10800
X2.89215 Y-1.10900
X2.89315 Y-1.10900
X2.89315 Y-1.11000
X2.89415 Y-1.11000
X2.89415 Y-1.11100
X2.89515 Y-1.11100
X2.89515 Y-1.11200
X2.89615 Y-1.11200
X2.89615 Y-1.11300
X2.89715 Y-1.11300
X2.89715 Y-1.11400
X2.89815 Y-1.11400
X2.89815 Y-1.11500
X2.89915 Y-1.11500
X2.89915 Y-1.11600
X2.90015 Y-1.11600
X2.90015 Y-1.11700
X2.90115 Y-1.11700
X2.90115 Y-1.11800
X2.90215 Y-1.11800
X2.90215 Y-1.11900
X2.90315 Y-1.11900
X2.90315 Y-1.12000
X2.90415 Y-1.12000
X2.90415 Y-1.12100
X2.90515 Y-1.12100
X2.90515 Y-1.12200
X2.90615 Y-1.12200
X2.90615 Y-1.12300
X2.90715 Y-1.12300
X2.90715 Y-1.12400
X2.90815 Y-1.12400
X2.90815 Y-1.12500
X2.90915 Y-1.12500
X2.90915 Y-1.12600
X2.91015 Y-1.12600
X2.91015 Y-1.12700
X2.91115 Y-1.12700
X2.91115 Y-1.12800
X2.91215 Y-1.12800
X2.91215 Y-1.12900
X2.91315 Y-1.12900
X2.91315 Y-1.13000
X2.91415 Y-1.13000
X2.91415 Y-1.13100
X2.91515 Y-1.13100
X2.91515 Y-1.13200
X2.91615 Y-1.13200
X2.91615 Y-1.13300
X2.91715 Y-1.13300
X2.91715 Y-1.13400
X2.91815 Y-1.13400
X2.91815 Y-1.13500
X2.91915 Y-1.13500
X2.91915 Y-1.13600
X2.92015 Y-1.13600
X2.92015 Y-1.13700
X2.92115 Y-1.13700
X2.92115 Y-1.13800
X2.92215 Y-1.13800
X2.92215 Y-1.13900
X2.92315 Y-1.13900
X2.92315 Y-1.14000
X2.92415 Y-1.14000
X2.92415 Y-1.14100
X2.92515 Y-1.14100
X2.92515 Y-1.14200
X2.92615 Y-1.14200
X2.92615 Y-1.14300
X2.92715 Y-1.14300
X2.92715 Y-1.14400
X2.92815 Y-1.14400
X2.92815 Y-1.14500
X2.92915 Y-1.14500
X2.92915 Y-1.14600
X2.93015 Y-1.14600
X2.93015 Y-1.14700
X2.93115 Y-1.14700
X2.93115 Y-1.14800
X2.93215 Y-1.14800
X2.93215 Y-1.14900
X2.93315 Y-1.14900
X2.93315 Y-1.15000
X2.93415 Y-1.15000
X2.93415 Y-1.15100
X2.93515 Y-1.15100
X2.93515 Y-1.15200
X2.93615 Y-1.15200
X2.93615 Y-1.15300
X2.93715 Y-1.15300
X2.93715 Y-1.15400
X2.93815 Y-1.15400
X2.93815 Y-1.15500
X2.93915 Y-1.15500
X2.93915 Y-1.15600
X2.94015 Y-1.15600
X2.94015 Y-1.15700
X2.94115 Y-1.15700
X2.94115 Y-1.15800
X2.94215 Y-1.15800
X2.94215 Y-1.15900
X2.94315 Y-1.15900
X2.94315 Y-1.16000
X2.94415 Y-1.16000
X2.94415 Y-1.16100
X2.94515 Y-1.16100
X2.94515 Y-1.16200
X2.94615 Y-1.16200
X2.94615 Y-1.16300
X2.94715 Y-1.16300
X2.94715 Y-1.16400
X2.94815 Y-1.16400
X2.94815 Y-1.16500
X2.94915 Y-1.16500
X2.94915 Y-1.16600
X2.95015 Y-1.16600
X2.95015 Y-1.16700
X2.95115 Y-1.16700
X2.95115 Y-1.16800
X2.95215 Y-1.16800
X2.95215 Y-1.16900
X2.95315 Y-1.16900
X2.95315 Y-1.17000
X2.95415 Y-1.17000
X2.95415 Y-1.17100
X2.95515 Y-1.17100
X2.95515 Y-1.17200
X2.95615 Y-1.17200
X2.95615 Y-1.17300
X2.95715 Y-1.17300
X2.95715 Y-1.17400
X2.95815 Y-1.17400
X2.95815 Y-1.17500
X2.95915 Y-1.17500
X2.95915 Y-1.17600
X2.96015 Y-1.17600
X2.96015 Y-1.17700
X2.96115 Y-1.17700
X2.96115 Y-1.17800
X2.96215 Y-1.17800
X2.96215 Y-1.17900
X2.96315 Y-1.17900
X2.96315 Y-1.18000
X2.96415 Y-1.18000
X2.96415 Y-1.18100
X2.96515 Y-1.18100
X2.96515 Y-1.18200
X2.96615 Y-1.18200
X2.96615 Y-1.18300
X2.96715 Y-1.18300
X2.96715 Y-1.18400
X2.96815 Y-1.18400
X2.96815 Y-1.18500
X2.96915 Y-1.18500
X2.96915 Y-1.18600
X2.97015 Y-1.18600
X2.97015 Y-1.18700
X2.97115 Y-1.18700
X2.97115 Y-1.18800
X2.97215 Y-1.18800
X2.97215 Y-1.18900
X2.97315 Y-1.18900
X2.97315 Y-1.19000
X2.97415 Y-1.19000
X2.97415 Y-1.19100
X2.97515 Y-1.19100
X2.97515 Y-1.19200
X2.97615 Y-1.19200
X2.97615 Y-1.19300
X2.97715 Y-1.19300
X2.97715 Y-1.19400
X2.97815 Y-1.19400
X2.97815 Y-1.19500
X2.97915 Y-1.19500
X2.97915 Y-1.19600
X2.98015 Y-1.19600
X2.98015 Y-1.19700
X2.98115 Y-1.19700
X2.98115 Y-1.19800
X2.98215 Y-1.19800
X2.98215 Y-1.19900
X2.98315 Y-1.19900
X2.98315 Y-1.20000
X2.98415 Y-1.20000
X2.98415 Y-1.20100
X2.98515 Y-1.20100
X2.98515 Y-1.20200
X2.98615 Y-1.20200
X2.98615 Y-1.20300
X2.98715 Y-1.20300
X2.98715 Y-1.20400
X2.98815 Y-1.20400
X2.98815 Y-1.20500
X2.98915 Y-1.20500
X2.98915 Y-1.20600
X2.99015 Y-1.20600
X2.99015 Y-1.20700
X2.99115 Y-1.20700
X2.99115 Y-1.20800
X2.99215 Y-1.20800
X2.99215 Y-1.20900
X2.99315 Y-1.20900
X2.99315 Y-1.21000
X2.99415 Y-1.21000
X2.99415 Y-1.21100
X2.99515 Y-1.21100
X2.99515 Y-1.21200
X2.99615 Y-1.21200
X2.99615 Y-1.21300
X2.99715 Y-1.21300
X2.99715 Y-1.21400
X2.99815 Y-1.21400
X2.99815 Y-1.21500
X2.99915 Y-1.21500
X2.99915 Y-1.21600
X3.00015 Y-1.21600
X3.00015 Y-1.21700
X3.00115 Y-1.21700
X3.00115 Y-1.21800
X3.00215 Y-1.21800
X3.00215 Y-1.21900
X3.00315 Y-1.21900
X3.00315 Y-1.22000
X3.00415 Y-1.22000
X3.00415 Y-1.22100
X3.00515 Y-1.22100
X3.00515 Y-1.22200
X3.00615 Y-1.22200
X3.00615 Y-1.22300
X3.00715 Y-1.22300
X3.00715 Y-1.22400
X3.00815 Y-1.22400
X3.00815 Y-1.22500
X3.00915 Y-1.22500
X3.00915 Y-1.22600
X3.01015 Y-1.22600
X3.01015 Y-1.22700
X3.01115 Y-1.22700
X3.01115 Y-1.22800
X3.01215 Y-1.22800
X3.01215 Y-1.22900
X3.01315 Y-1.22900
X3.01315 Y-1.23000
X3.01415 Y-1.23000
X3.01415 Y-1.23100
X3.01515 Y-1.23100
X3.01515 Y-1.23200
X3.01615 Y-1.23200
X3.01615 Y-1.23300
X3.01715 Y-1.23300
X3.01715 Y-1.23400
X3.01815 Y-1.23400
X3.01815 Y-1.23500
X3.01915 Y-1.23500
X3.01915 Y-1.23600
X3.02015 Y-1.23600
X3.02015 Y-1.23700
X3.02115 Y-1.23700
X3.02115 Y-1.23800
X3.02215 Y-1.23800
X3.02215 Y-1.23900
X3.02315 Y-1.23900
X3.02315 Y-1.24000
X3.02415 Y-1.24000
X3.02415 Y-1.24100
X3.02515 Y-1.24100
X3.02515 Y-1.24200
X3.02615 Y-1.24200
X3.02615 Y-1.24300
X3.02715 Y-1.24300
X3.02715 Y-1.24400
X3.02815 Y-1.24400
X3.02815 Y-1.24500
X3.02915 Y-1.24500
X3.02915 Y-1.24600
X3.03015 Y-1.24600
X3.03015 Y-1.24700
X3.03115 Y-1.24700
X3.03115 Y-1.24800
X3.03215 Y-1.24800
X3.03215 Y-1.24900
X3.03315 Y-1.24900
X3.03315 Y-1.25000
X3.03415 Y-1.25000
X3.03415 Y-1.25100
X3.03515 Y-1.25100
X3.03515 Y-1.25200
X3.03615 Y-1.25200
X3.03615 Y-1.25300
X3.03715 Y-1.25300
X3.03715 Y-1.25400
X3.03815 Y-1.25400
X3.03815 Y-1.25500
X3.03915 Y-1.25500
X3.03915 Y-1.25600
X3.04015 Y-1.25600
X3.04015 Y-1.25700
X3.04115 Y-1.25700
X3.04115 Y-1.25800
X3.04215 Y-1.25800
X3.04215 Y-1.25900
X3.04315 Y-1.25900
X3.04315 Y-1.26000
X3.04415 Y-1.26000
X3.04415 Y-1.26100
X3.04515 Y-1.26100
X3.04515 Y-1.26200
X3.04615 Y-1.26200
X3.04615 Y-1.26300
X3.04715 Y-1.26300
X3.04715 Y-1.26400
X3.04815 Y-1.26400
X3.04815 Y-1.26500
X3.04915 Y-1.26500
X3.04915 Y-1.26600
X3.05015 Y-1.26600
X3.05015 Y-1.26700
X3.05115 Y-1.26700
X3.05115 Y-1.26800
X3.05215 Y-1.26800
X3.05215 Y-1.26900
X3.05315 Y-1.26900
X3.05315 Y-1.27000
X3.05415 Y-1.27000
X3.05415 Y-1.27100
X3.05515 Y-1.27100
X3.05515 Y-1.27200
X3.05615 Y-1.27200
X3.05615 Y-1.27300
X3.05715 Y-1.27300
X3.05715 Y-1.27400
X3.05815 Y-1.27400
X3.05815 Y-1.27500
X3.05915 Y-1.27500
X3.05915 Y-1.27600
X3.06015 Y-1.27600
X3.06015 Y-1.27700
X3.06115 Y-1.27700
X3.06115 Y-1.27800
X3.06215 Y-1.27800
X3.06215 Y-1.27900
X3.06315 Y-1.27900
X3.06315 Y-1.28000
X3.06415 Y-1.28000
X3.06415 Y-1.28100
X3.06515 Y-1.28100
X3.06515 Y-1.28200
X3.06615 Y-1.28200
X3.06615 Y-1.28300
X3.06715 Y-1.28300
X3.06715 Y-1.28400
X3.06815 Y-1.28400
X3.06815 Y-1.28500
X3.06915 Y-1.28500
X3.06915 Y-1.28600
X3.07015 Y-1.28600
X3.07015 Y-1.28700
X3.07115 Y-1.28700
X3.07115 Y-1.28800
X3.07215 Y-1.28800
X3.07215 Y-1.28900
X3.07315 Y-1.28900
X3.07315 Y-1.29000
X3.07415 Y-1.29000
X3.07415 Y-1.29100
X3.07515 Y-1.29100
X3.07515 Y-1.29200
X3.07615 Y-1.29200
X3.07615 Y-1.29300
X3.07715 Y-1.29300
X3.07715 Y-1.29400
X3.07815 Y-1.29400
X3.07815 Y-1.29500
X3.07915 Y-1.29500
X3.07915 Y-1.29600
X3.08015 Y-1.29600
X3.08015 Y-1.29700
X3.08115 Y-1.29700
X3.08115 Y-1.29800
X3.08215 Y-1.29800
X3.08215 Y-1.29900
X3.08315 Y-1.29900
X3.08315 Y-1.30000
X3.08415 Y-1.30000
X3.08415 Y-1.30100
X3.08515 Y-1.30100
X3.08515 Y-1.30200
X3.08615 Y-1.30200
X3.08615 Y-1.30300
X3.08715 Y-1.30300
X3.08715 Y-1.30400
X3.08815 Y-1.30400
X3.08815 Y-1.30500
X3.08915 Y-1.30500
X3.08915 Y-1.30600
X3.09015 Y-1.30600
X3.09015 Y-1.30700
X3.09115 Y-1.30700
X3.09115 Y-1.30800
X3.09215 Y-1.30800
X3.09215 Y-1.30900
X3.09315 Y-1.30900
X3.09315 Y-1.31000
X3.09415 Y-1.31000
X3.09415 Y-1.31100
X3.09515 Y-1.31100
X3.09515 Y-1.31200
X3.09615 Y-1.31200
X3.09615 Y-1.31300
X3.09715 Y-1.31300
X3.09715 Y-1.31400
X3.09815 Y-1.31400
X3.09815 Y-1.31500
X3.09915 Y-1.31500
X3.09915 Y-1.31600
X3.10015 Y-1.31600
X3.10015 Y-1.31700
X3.10115 Y-1.31700
X3.10115 Y-1.31800
X3.10215 Y-1.31800
X3.10215 Y-1.31900
X3.10315 Y-1.31900
X3.10315 Y-1.32000
X3.10415 Y-1.32000
X3.10415 Y-1.32100
X3.10515 Y-1.32100
X3.10515 Y-1.32200
X3.10615 Y-1.32200
X3.10615 Y-1.32300
X3.10715 Y-1.32300
X3.10715 Y-1.32400
X3.10815 Y-1.32400
X3.10815 Y-1.32500
X3.10915 Y-1.32500
X3.10915 Y-1.32600
X3.11015 Y-1.32600
X3.11015 Y-1.32700
X3.11115 Y-1.32700
X3.11115 Y-1.32800
X3.11215 Y-1.32800
X3.11215 Y-1.32900
X3.11315 Y-1.32900
X3.11315 Y-1.33000
X3.11415 Y-1.33000
X3.11415 Y-1.33100
X3.11515 Y-1.33100
X3.11515 Y-1.33200
X3.11615 Y-1.33200
X3.11615 Y-1.33300
X3.11715 Y-1.33300
X3.11715 Y-1.33400
X3.11815 Y-1.33400
X3.11815 Y-1.33500
X3.11915 Y-1.33500
X3.11915 Y-1.33600
X3.12015 Y-1.33600
X3.12015 Y-1.33700
X3.12115 Y-1.33700
X3.12115 Y-1.33800
X3.12215 Y-1.33800
X3.12215 Y-1.33900
X3.12315 Y-1.33900
X3.12315 Y-1.34000
X3.12415 Y-1.34000
X3.12415 Y-1.34100
X3.12515 Y-1.34100
X3.12515 Y-1.34200
X3.12615 Y-1.34200
X3.12615 Y-1.34300
X3.12715 Y-1.34300
X3.12715 Y-1.34400
X3.12815 Y-1.34400
X3.12815 Y-1.34500
X3.12915 Y-1.34500
X3.12915 Y-1.34600
X3.13015 Y-1.34600
X3.13015 Y-1.34700
X3.13115 Y-1.34700
X3.13115 Y-1.34800
X3.13215 Y-1.34800
X3.13215 Y-1.34900
X3.13315 Y-1.34900
X3.13315 Y-1.35000
X3.13415 Y-1.35000
X3.13415 Y-1.35100
X3.13515 Y-1.35100
X3.13515 Y-1.35200
X3.13615 Y-1.35200
X3.13615 Y-1.35300
X3.13715 Y-1.35300
X3.13715 Y-1.35400
X3.13815 Y-1.35400
X3.13815 Y-1.35500
X3.13915 Y-1.35500
X3.13915 Y-1.35600
X3.14015 Y-1.35600
X3.14015 Y-1.35700
X3.14115 Y-1.35700
X3.14115 Y-1.35800
X3.14215 Y-1.35800
X3.14215 Y-1.35900
X3.14315 Y-1.35900
X3.14315 Y-1.36000
X3.14415 Y-1.36000
X3.14415 Y-1.36100
X3.14515 Y-1.36100
X3.14515 Y-1.36200
X3.14615 Y-1.36200
X3.14615 Y-1.36300
X3.14715 Y-1.36300
X3.14715 Y-1.36400
X3.14815 Y-1.36400
X3.14815 Y-1.36500
X3.14915 Y-1.36500
X3.14915 Y-1.36600
X3.15015 Y-1.36600
X3.15015 Y-1.36700
X3.15115 Y-1.36700
X3.15115 Y-1.36800
X3.15215 Y-1.36800
X3.15215 Y-1.36900
X3.15315 Y-1.36900
X3.15315 Y-1.37000
X3.15415 Y-1.37000
X3.15415 Y-1.37100
X3.15515 Y-1.37100
X3.15515 Y-1.37200
X3.15615 Y-1.37200
X3.15615 Y-1.37300
X3.15715 Y-1.37300
X3.15715 Y-1.37400
X3.15815 Y-1.37400
X3.15815 Y-1.37500
X3.15915 Y-1.37500
X3.15915 Y-1.37600
X3.16015 Y-1.37600
X3.16015 Y-1.37700
X3.16115 Y-1.37700
X3.16115 Y-1.37800
X3.16215 Y-1.37800
X3.16215 Y-1.37900
X3.16315 Y-1.37900
X3.16315 Y-1.38000
X3.16415 Y-1.38000
X3.16415 Y-1.38100
X3.16515 Y-1.38100
X3.16515 Y-1.38200
X3.16615 Y-1.38200
X3.16615 Y-1.38300
X3.16715 Y-1.38300
X3.16715 Y-1.38400
X3.16815 Y-1.38400
X3.16815 Y-1.38500
X3.16915 Y-1.38500
X3.16915 Y-1.38600
X3.17015 Y-1.38600
X3.17015 Y-1.38700
X3.17115 Y-1.38700
X3.17115 Y-1.38800
X3.17215 Y-1.38800
X3.17215 Y-1.38900
X3.17315 Y-1.38900
X3.17315 Y-1.39000
X3.17415 Y-1.39000
X3.17415 Y-1.39100
X3.17515 Y-1.39100
X3.17515 Y-1.39200
X3.17615 Y-1.39200
X3.17615 Y-1.39300
X3.17715 Y-1.39300
X3.17715 Y-1.39400
X3.17815 Y-1.39400
X3.17815 Y-1.39500
X3.17915 Y-1.39500
X3.17915 Y-1.39600
X3.18015 Y-1.39600
X3.18015 Y-1.39700
X3.18115 Y-1.39700
X3.18115 Y-1.39800
X3.18215 Y-1.39800
X3.18215 Y-1.39900
X3.18315 Y-1.39900
X3.18315 Y-1.40000
X3.18415 Y-1.40000
X3.18415 Y-1.40100
X3.18515 Y-1.40100
X3.18515 Y-1.40200
X3.18615 Y-1.40200
X3.18615 Y-1.40300
X3.18715 Y-1.40300
X3.18715 Y-1.40400
X3.18815 Y-1.40400
X3.18815 Y-1.40500
X3.18915 Y-1.40500
X3.18915 Y-1.40600
X3.19015 Y-1.40600
X3.19015 Y-1.40700
X3.19115 Y-1.40700
X3.19115 Y-1.40800
X3.19215 Y-1.40800
X3.19215 Y-1.40900
X3.19315 Y-1.40900
X3.19315 Y-1.41000
X3.19415 Y-1.41000
X3.19415 Y-1.41100
X3.19515 Y-1.41100
X3.19515 Y-1.41200
X3.19615 Y-1.41200
X3.19615 Y-1.41300
X3.19715 Y-1.41300
X3.19715 Y-1.41400
X3.19815 Y-1.41400
X3.19815 Y-1.41500
X3.19915 Y-1.41500
X3.19915 Y-1.41600
X3.20015 Y-1.41600
X3.20015 Y-1.41700
X3.20115 Y-1.41700
X3.20115 Y-1.41800
X3.20215 Y-1.41800
X3.20215 Y-1.41900
X3.20315 Y-1.41900
X3.20315 Y-1.42000
X3.20415 Y-1.42000
X3.20415 Y-1.42100
X3.20515 Y-1.42100
X3.20515 Y-1.42200
X3.20615 Y-1.42200
X3.20615 Y-1.42300
X3.20715 Y-1.42300
X3.20715 Y-1.42400
X3.20815 Y-1.42400
X3.20815 Y-1.42500
X3.20915 Y-1.42500
X3.20915 Y-1.42600
X3.21015 Y-1.42600
X3.21015 Y-1.42700
X3.21115 Y-1.42700
X3.21115 Y-1.42800
X3.21215 Y-1.42800
X3.21215 Y-1.42900
X3.21315 Y-1.42900
X3.21315 Y-1.43000
X3.21415 Y-1.43000
X3.21415 Y-1.43100
X3.21515 Y-1.43100
X3.21515 Y-1.43200
X3.21615 Y-1.43200
X3.21615 Y-1.43300
X3.21715 Y-1.43300
X3.21715 Y-1.43400
X3.21815 Y-1.43400
X3.21815 Y-1.43500
X3.21915 Y-1.43500
X3.21915 Y-1.43600
X3.22015 Y-1.43600
X3.22015 Y-1.43700
X3.22115 Y-1.43700
X3.22115 Y-1.43800
X3.22215 Y-1.43800
X3.22215 Y-1.43900
X3.22315 Y-1.43900
X3.22315 Y-1.44000
X3.22415 Y-1.44000
X3.22415 Y-1.44100
X3.22515 Y-1.44100
X3.22515 Y-1.44200
X3.22615 Y-1.44200
X3.22615 Y-1.44300
X3.22715 Y-1.44300
X3.22715 Y-1.44400
X3.22815 Y-1.44400
X3.22815 Y-1.44500
X3.22915 Y-1.44500
X3.22915 Y-1.44600
X3.23015 Y-1.44600
X3.23015 Y-1.44700
X3.23115 Y-1.44700
X3.23115 Y-1.44800
X3.23215 Y-1.44800
X3.23215 Y-1.44900
X3.23315 Y-1.44900
X3.23315 Y-1.45000
X3.23415 Y-1.45000
X3.23415 Y-1.45100
X3.23515 Y-1.45100
X3.23515 Y-1.45200
X3.23615 Y-1.45200
X3.23615 Y-1.45300
X3.23715 Y-1.45300
X3.23715 Y-1.45400
X3.23815 Y-1.45400
X3.23815 Y-1.45500
X3.23915 Y-1.45500
X3.23915 Y-1.45600
X3.24015 Y-1.45600
X3.24015 Y-1.45700
X3.24115 Y-1.45700
X3.24115 Y-1.45800
X3.24215 Y-1.45800
X3.24215 Y-1.45900
X3.24315 Y-1.45900
X3.24315 Y-1.46000
X3.24415 Y-1.46000
X3.24415 Y-1.46100
X3.24515 Y-1.46100
X3.24515 Y-1.46200
X3.24615 Y-1.46200
X3.24615 Y-1.46300
X3.24715 Y-1.46300
X3.24715 Y-1.46400
X3.24815 Y-1.46400
X3.24815 Y-1.46500
X3.24915 Y-1.46500
X3.24915 Y-1.46600
X3.25015 Y-1.46600
X3.25015 Y-1.46700
X3.25115 Y-1.46700
X3.25115 Y-1.46800
X3.25215 Y-1.46800
X3.25215 Y-1.46900
X3.25315 Y-1.46900
X3.25315 Y-1.47000
X3.25415 Y-1.47000
X3.25415 Y-1.47100
X3.25515 Y-1.47100
X3.25515 Y-1.47200
X3.25615 Y-1.47200
X3.25615 Y-1.47300
X3.25715 Y-1.47300
X3.25715 Y-1.47400
X3.25815 Y-1.47400
X3.25815 Y-1.47500
X3.25915 Y-1.47500
X3.25915 Y-1.47600
X3.26015 Y-1.47600
X3.26015 Y-1.47700
X3.26115 Y-1.47700
X3.26115 Y-1.47800
X3.26215 Y-1.47800
X3.26215 Y-1.47900
X3.26315 Y-1.47900
X3.26315 Y-1.48000
X3.26415 Y-1.48000
X3.26415 Y-1.48100
X3.26515 Y-1.48100
X3.26515 Y-1.48200
X3.26615 Y-1.48200
X3.26615 Y-1.48300
X3.26715 Y-1.48300
X3.26715 Y-1.48400
X3.26815 Y-1.48400
X3.26815 Y-1.48500
X3.26915 Y-1.48500
X3.26915 Y-1.48600
X3.27015 Y-1.48600
X3.27015 Y-1.48700
X3.27115 Y-1.48700
X3.27115 Y-1.48800
X3.27215 Y-1.48800
X3.27215 Y-1.48900
X3.27315 Y-1.48900
X3.27315 Y-1.49000
X3.27415 Y-1.49000
X3.27415 Y-1.49100
X3.27515 Y-1.49100
X3.27515 Y-1.49200
X3.27615 Y-1.49200
X3.27615 Y-1.49300
X3.27715 Y-1.49300
X3.27715 Y-1.49400
X3.27815 Y-1.49400
X3.27815 Y-1.49500
X3.27915 Y-1.49500
X3.27915 Y-1.49600
X3.28015 Y-1.49600
X3.28015 Y-1.49700
X3.28115 Y-1.49700
X3.28115 Y-1.49800
X3.28215 Y-1.49800
X3.28215 Y-1.49900
X3.28315 Y-1.49900
X3.28315 Y-1.50000
X3.28415 Y-1.50000
X3.28415 Y-1.50100
X3.28515 Y-1.50100
X3.28515 Y-1.50200
X3.28615 Y-1.50200
X3.28615 Y-1.50300
X3.28715 Y-1.50300
X3.28715 Y-1.50400
X3.28815 Y-1.50400
X3.28815 Y-1.50500
X3.28915 Y-1.50500
X3.28915 Y-1.50600
X3.29015 Y-1.50600
X3.29015 Y-1.50700
X3.29115 Y-1.50700
X3.29115 Y-1.50800
X3.29215 Y-1.50800
X3.29215 Y-1.50900
X3.29315 Y-1.50900
X3.29315 Y-1.51000
X3.29415 Y-1.51000
X3.29415 Y-1.51100
X3.29515 Y-1.51100
X3.29515 Y-1.51200
X3.29615 Y-1.51200
X3.29615 Y-1.51300
X3.29715 Y-1.51300
X3.29715 Y-1.51400
X3.29815 Y-1.51400
X3.29815 Y-1.51500
X3.29915 Y-1.51500
X3.29915 Y-1.51600
X3.30015 Y-1.51600
X3.30015 Y-1.51700
X3.30115 Y-1.51700
X3.30115 Y-1.51900
X3.30215 Y-1.51900
X3.30215 Y-1.52000
X3.30315 Y-1.52000
X3.30315 Y-1.52100
X3.30415 Y-1.52100
X3.30415 Y-1.52200
X3.30515 Y-1.52200
X3.30515 Y-1.52700
X3.30615 Y-1.52700
X3.30615 Y-1.53300
X3.30715 Y-1.53300
X3.30715 Y-1.74300
X3.30815 Y-1.74300
X3.30815 Y-1.74400
X3.30915 Y-1.74400
X3.30915 Y-1.74500
X3.31015 Y-1.74500
X3.31015 Y-1.74600
X3.31315 Y-1.74600
X3.31315 Y-1.74700
X3.31415 Y-1.74700
X3.31415 Y-1.74800
X3.31515 Y-1.74800
X3.31515 Y-1.74900
X3.31715 Y-1.74900
X3.31715 Y-1.75000
X3.31915 Y-1.75000
X3.31915 Y-1.75100
X3.32015 Y-1.75100
X3.32015 Y-1.75200
X3.32215 Y-1.75200
X3.32215 Y-1.75300
X3.32315 Y-1.75300
X3.32315 Y-1.75400
X3.32415 Y-1.75400
X3.32415 Y-1.75500
X3.32615 Y-1.75500
X3.32615 Y-1.75600
X3.32715 Y-1.75600
X3.32715 Y-1.75700
X3.32815 Y-1.75700
X3.32815 Y-1.75900
X3.32915 Y-1.75900
X3.32915 Y-1.76000
X3.33015 Y-1.76000
X3.33015 Y-1.76100
X3.33115 Y-1.76100
X3.33115 Y-1.76200
X3.33215 Y-1.76200
X3.33215 Y-1.76400
X3.33315 Y-1.76400
X3.33315 Y-1.76500
X3.33415 Y-1.76500
X3.33415 Y-1.76700
X3.33515 Y-1.76700
X3.33515 Y-1.76800
X3.33615 Y-1.76800
X3.33615 Y-1.77000
X3.33715 Y-1.77000
X3.33715 Y-1.77200
X3.33815 Y-1.77200
X3.33815 Y-1.77400
X3.33915 Y-1.77400
X3.33915 Y-1.77600
X3.34015 Y-1.77600
X3.34015 Y-1.78200
X3.34115 Y-1.78200
X3.34115 Y-1.78400
X3.34215 Y-1.78400
X3.34215 Y-1.79200
X3.34315 Y-1.79200
X3.34315 Y-1.80100
X3.34215 Y-1.80100
X3.34215 Y-1.80900
X3.34115 Y-1.80900
X3.34115 Y-1.81100
X3.34015 Y-1.81100
X3.34015 Y-1.81600
X3.33915 Y-1.81600
X3.33915 Y-1.81900
X3.33815 Y-1.81900
X3.33815 Y-1.82000
X3.33715 Y-1.82000
X3.33715 Y-1.82200
X3.33615 Y-1.82200
X3.33615 Y-1.82400
X3.33515 Y-1.82400
X3.33515 Y-1.82600
X3.33415 Y-1.82600
X3.33415 Y-1.82800
X3.33315 Y-1.82800
X3.33315 Y-1.82900
X3.33215 Y-1.82900
X3.33215 Y-1.83100
X3.33115 Y-1.83100
X3.33115 Y-1.83200
X3.33015 Y-1.83200
X3.33015 Y-1.83300
X3.32915 Y-1.83300
X3.32915 Y-1.83400
X3.32815 Y-1.83400
X3.32815 Y-1.83600
X3.32715 Y-1.83600
X3.32715 Y-1.83700
X3.32615 Y-1.83700
X3.32615 Y-1.83800
X3.32415 Y-1.83800
X3.32415 Y-1.83900
X3.32315 Y-1.83900
X3.32315 Y-1.84000
X3.32215 Y-1.84000
X3.32215 Y-1.84100
X3.32015 Y-1.84100
X3.32015 Y-1.84200
X3.31915 Y-1.84200
X3.31915 Y-1.84300
X3.31715 Y-1.84300
X3.31715 Y-1.84400
X3.31515 Y-1.84400
X3.31515 Y-1.84500
X3.31315 Y-1.84500
X3.31315 Y-1.84600
X3.31215 Y-1.84600
X3.31215 Y-1.84700
X3.31015 Y-1.84700
X3.31015 Y-1.84800
X3.30415 Y-1.84800
X3.30415 Y-1.84900
X3.30115 Y-1.84900
X3.30115 Y-1.85000
X3.29815 Y-1.85000
X3.29815 Y-1.85100
X3.27715 Y-1.85100
X3.27715 Y-1.85000
X3.27415 Y-1.85000
X3.27415 Y-1.84900
X3.27115 Y-1.84900
X3.27115 Y-1.84800
X3.26515 Y-1.84800
X3.26515 Y-1.84700
X3.26315 Y-1.84700
X3.26315 Y-1.84600
X3.26215 Y-1.84600
X3.26215 Y-1.84500
X3.26015 Y-1.84500
X3.26015 Y-1.84400
X3.25815 Y-1.84400
X3.25815 Y-1.84300
X3.25615 Y-1.84300
X3.25615 Y-1.84200
X3.25515 Y-1.84200
X3.25515 Y-1.84100
X3.25315 Y-1.84100
X3.25315 Y-1.84000
X3.25215 Y-1.84000
X3.25215 Y-1.83900
X3.25115 Y-1.83900
X3.25115 Y-1.83800
X3.24915 Y-1.83800
X3.24915 Y-1.83700
X3.24815 Y-1.83700
X3.24815 Y-1.83600
X3.24715 Y-1.83600
X3.24715 Y-1.83400
X3.24615 Y-1.83400
X3.24615 Y-1.83300
X3.24515 Y-1.83300
X3.24515 Y-1.83200
X3.24415 Y-1.83200
X3.24415 Y-1.83100
X3.24315 Y-1.83100
X3.24315 Y-1.82900
X3.24215 Y-1.82900
X3.24215 Y-1.82800
X3.24115 Y-1.82800
X3.24115 Y-1.82600
X3.24015 Y-1.82600
X3.24015 Y-1.82400
X3.23915 Y-1.82400
X3.23915 Y-1.82200
X3.23815 Y-1.82200
X3.23815 Y-1.82000
X3.23715 Y-1.82000
X3.23715 Y-1.81900
X3.23615 Y-1.81900
X3.23615 Y-1.81600
X3.23515 Y-1.81600
X3.23515 Y-1.81100
X3.23415 Y-1.81100
X3.23415 Y-1.80900
X3.23315 Y-1.80900
X3.23315 Y-1.80100
X3.23215 Y-1.80100
X3.23215 Y-1.79200
X3.23315 Y-1.79200
X3.23315 Y-1.78400
X3.23415 Y-1.78400
X3.23415 Y-1.78200
X3.23515 Y-1.78200
X3.23515 Y-1.77700
X3.23615 Y-1.77700
X3.23615 Y-1.77400
X3.23715 Y-1.77400
X3.23715 Y-1.77200
X3.23815 Y-1.77200
X3.23815 Y-1.77000
X3.23915 Y-1.77000
X3.23915 Y-1.76800
X3.24015 Y-1.76800
X3.24015 Y-1.76700
X3.24115 Y-1.76700
X3.24115 Y-1.76500
X3.24215 Y-1.76500
X3.24215 Y-1.76400
X3.24315 Y-1.76400
X3.24315 Y-1.76200
X3.24415 Y-1.76200
X3.24415 Y-1.76100
X3.24515 Y-1.76100
X3.24515 Y-1.76000
X3.24615 Y-1.76000
X3.24615 Y-1.75900
X3.24715 Y-1.75900
X3.24715 Y-1.75700
X3.24815 Y-1.75700
X3.24815 Y-1.75600
X3.24915 Y-1.75600
X3.24915 Y-1.75500
X3.25115 Y-1.75500
X3.25115 Y-1.75400
X3.25215 Y-1.75400
X3.25215 Y-1.75300
X3.25315 Y-1.75300
X3.25315 Y-1.75200
X3.25515 Y-1.75200
X3.25515 Y-1.75100
X3.25615 Y-1.75100
X3.25615 Y-1.75000
X3.25815 Y-1.75000
X3.25815 Y-1.74900
X3.26015 Y-1.74900
X3.26015 Y-1.74800
X3.26115 Y-1.74800
X3.26115 Y-1.74700
X3.26215 Y-1.74700
X3.26215 Y-1.74600
X3.26515 Y-1.74600
X3.26515 Y-1.74500
X3.26615 Y-1.74500
X3.26615 Y-1.74400
X3.26715 Y-1.74400
X3.26715 Y-1.74300
X3.26815 Y-1.74300
X3.26815 Y-1.54300
X3.26715 Y-1.54300
X3.26715 Y-1.54000
X3.26615 Y-1.54000
X3.26615 Y-1.53800
X3.26515 Y-1.53800
X3.26515 Y-1.53600
X3.26415 Y-1.53600
X3.26415 Y-1.53500
X3.26315 Y-1.53500
X3.26315 Y-1.53400
X3.26215 Y-1.53400
X3.26215 Y-1.53300
X3.26115 Y-1.53300
X3.26115 Y-1.53200
X3.26015 Y-1.53200
X3.26015 Y-1.53100
X3.25915 Y-1.53100
X3.25915 Y-1.53000
X3.25815 Y-1.53000
X3.25815 Y-1.52900
X3.25715 Y-1.52900
X3.25715 Y-1.52800
X3.25615 Y-1.52800
X3.25615 Y-1.52700
X3.25515 Y-1.52700
X3.25515 Y-1.52600
X3.25415 Y-1.52600
X3.25415 Y-1.52500
X3.25315 Y-1.52500
X3.25315 Y-1.52400
X3.25215 Y-1.52400
X3.25215 Y-1.52300
X3.25115 Y-1.52300
X3.25115 Y-1.52200
X3.25015 Y-1.52200
X3.25015 Y-1.52100
X3.24915 Y-1.52100
X3.24915 Y-1.52000
X3.24815 Y-1.52000
X3.24815 Y-1.51900
X3.24715 Y-1.51900
X3.24715 Y-1.51800
X3.24615 Y-1.51800
X3.24615 Y-1.51700
X3.24515 Y-1.51700
X3.24515 Y-1.51600
X3.24415 Y-1.51600
X3.24415 Y-1.51500
X3.24315 Y-1.51500
X3.24315 Y-1.51400
X3.24215 Y-1.51400
X3.24215 Y-1.51300
X3.24115 Y-1.51300
X3.24115 Y-1.51200
X3.24015 Y-1.51200
X3.24015 Y-1.51100
X3.23915 Y-1.51100
X3.23915 Y-1.51000
X3.23815 Y-1.51000
X3.23815 Y-1.50900
X3.23715 Y-1.50900
X3.23715 Y-1.50800
X3.23615 Y-1.50800
X3.23615 Y-1.50700
X3.23515 Y-1.50700
X3.23515 Y-1.50600
X3.23415 Y-1.50600
X3.23415 Y-1.50500
X3.23315 Y-1.50500
X3.23315 Y-1.50400
X3.23215 Y-1.50400
X3.23215 Y-1.50300
X3.23115 Y-1.50300
X3.23115 Y-1.50200
X3.23015 Y-1.50200
X3.23015 Y-1.50100
X3.22915 Y-1.50100
X3.22915 Y-1.50000
X3.22815 Y-1.50000
X3.22815 Y-1.49900
X3.22715 Y-1.49900
X3.22715 Y-1.49800
X3.22615 Y-1.49800
X3.22615 Y-1.49700
X3.22515 Y-1.49700
X3.22515 Y-1.49600
X3.22415 Y-1.49600
X3.22415 Y-1.49500
X3.22315 Y-1.49500
X3.22315 Y-1.49400
X3.22215 Y-1.49400
X3.22215 Y-1.49300
X3.22115 Y-1.49300
X3.22115 Y-1.49200
X3.22015 Y-1.49200
X3.22015 Y-1.49100
X3.21915 Y-1.49100
X3.21915 Y-1.49000
X3.21815 Y-1.49000
X3.21815 Y-1.48900
X3.21715 Y-1.48900
X3.21715 Y-1.48800
X3.21615 Y-1.48800
X3.21615 Y-1.48700
X3.21515 Y-1.48700
X3.21515 Y-1.48600
X3.21415 Y-1.48600
X3.21415 Y-1.48500
X3.21315 Y-1.48500
X3.21315 Y-1.48400
X3.21215 Y-1.48400
X3.21215 Y-1.48300
X3.21115 Y-1.48300
X3.21115 Y-1.48200
X3.21015 Y-1.48200
X3.21015 Y-1.48100
X3.20915 Y-1.48100
X3.20915 Y-1.48000
X3.20815 Y-1.48000
X3.20815 Y-1.47900
X3.20715 Y-1.47900
X3.20715 Y-1.47800
X3.20615 Y-1.47800
X3.20615 Y-1.47700
X3.20515 Y-1.47700
X3.20515 Y-1.47600
X3.20415 Y-1.47600
X3.20415 Y-1.47500
X3.20315 Y-1.47500
X3.20315 Y-1.47400
X3.20215 Y-1.47400
X3.20215 Y-1.47300
X3.20115 Y-1.47300
X3.20115 Y-1.47200
X3.20015 Y-1.47200
X3.20015 Y-1.47100
X3.19915 Y-1.47100
X3.19915 Y-1.47000
X3.19815 Y-1.47000
X3.19815 Y-1.46900
X3.19715 Y-1.46900
X3.19715 Y-1.46800
X3.19615 Y-1.46800
X3.19615 Y-1.46700
X3.19515 Y-1.46700
X3.19515 Y-1.46600
X3.19415 Y-1.46600
X3.19415 Y-1.46500
X3.19315 Y-1.46500
X3.19315 Y-1.46400
X3.19215 Y-1.46400
X3.19215 Y-1.46300
X3.19115 Y-1.46300
X3.19115 Y-1.46200
X3.19015 Y-1.46200
X3.19015 Y-1.46100
X3.18915 Y-1.46100
X3.18915 Y-1.46000
X3.18815 Y-1.46000
X3.18815 Y-1.45900
X3.18715 Y-1.45900
X3.18715 Y-1.45800
X3.18615 Y-1.45800
X3.18615 Y-1.45700
X3.18515 Y-1.45700
X3.18515 Y-1.45600
X3.18415 Y-1.45600
X3.18415 Y-1.45500
X3.18315 Y-1.45500
X3.18315 Y-1.45400
X3.18215 Y-1.45400
X3.18215 Y-1.45300
X3.18115 Y-1.45300
X3.18115 Y-1.45200
X3.18015 Y-1.45200
X3.18015 Y-1.45100
X3.17915 Y-1.45100
X3.17915 Y-1.45000
X3.17815 Y-1.45000
X3.17815 Y-1.44900
X3.17715 Y-1.44900
X3.17715 Y-1.44800
X3.17615 Y-1.44800
X3.17615 Y-1.44700
X3.17515 Y-1.44700
X3.17515 Y-1.44600
X3.17415 Y-1.44600
X3.17415 Y-1.44500
X3.17315 Y-1.44500
X3.17315 Y-1.44400
X3.17215 Y-1.44400
X3.17215 Y-1.44300
X3.17115 Y-1.44300
X3.17115 Y-1.44200
X3.17015 Y-1.44200
X3.17015 Y-1.44100
X3.16915 Y-1.44100
X3.16915 Y-1.44000
X3.16815 Y-1.44000
X3.16815 Y-1.43900
X3.16715 Y-1.43900
X3.16715 Y-1.43800
X3.16615 Y-1.43800
X3.16615 Y-1.43700
X3.16515 Y-1.43700
X3.16515 Y-1.43600
X3.16415 Y-1.43600
X3.16415 Y-1.43500
X3.16315 Y-1.43500
X3.16315 Y-1.43400
X3.16215 Y-1.43400
X3.16215 Y-1.43300
X3.16115 Y-1.43300
X3.16115 Y-1.43200
X3.16015 Y-1.43200
X3.16015 Y-1.43100
X3.15915 Y-1.43100
X3.15915 Y-1.43000
X3.15815 Y-1.43000
X3.15815 Y-1.42900
X3.15715 Y-1.42900
X3.15715 Y-1.42800
X3.15615 Y-1.42800
X3.15615 Y-1.42700
X3.15515 Y-1.42700
X3.15515 Y-1.42600
X3.15415 Y-1.42600
X3.15415 Y-1.42500
X3.15315 Y-1.42500
X3.15315 Y-1.42400
X3.15215 Y-1.42400
X3.15215 Y-1.42300
X3.15115 Y-1.42300
X3.15115 Y-1.42200
X3.15015 Y-1.42200
X3.15015 Y-1.42100
X3.14915 Y-1.42100
X3.14915 Y-1.42000
X3.14815 Y-1.42000
X3.14815 Y-1.41900
X3.14715 Y-1.41900
X3.14715 Y-1.41800
X3.14615 Y-1.41800
X3.14615 Y-1.41700
X3.14515 Y-1.41700
X3.14515 Y-1.41600
X3.14415 Y-1.41600
X3.14415 Y-1.41500
X3.14315 Y-1.41500
X3.14315 Y-1.41400
X3.14215 Y-1.41400
X3.14215 Y-1.41300
X3.14115 Y-1.41300
X3.14115 Y-1.41200
X3.14015 Y-1.41200
X3.14015 Y-1.41100
X3.13915 Y-1.41100
X3.13915 Y-1.41000
X3.13815 Y-1.41000
X3.13815 Y-1.40900
X3.13715 Y-1.40900
X3.13715 Y-1.40800
X3.13615 Y-1.40800
X3.13615 Y-1.40700
X3.13515 Y-1.40700
X3.13515 Y-1.40600
X3.13415 Y-1.40600
X3.13415 Y-1.40500
X3.13315 Y-1.40500
X3.13315 Y-1.40400
X3.13215 Y-1.40400
X3.13215 Y-1.40300
X3.13115 Y-1.40300
X3.13115 Y-1.40200
X3.13015 Y-1.40200
X3.13015 Y-1.40100
X3.12915 Y-1.40100
X3.12915 Y-1.40000
X3.12815 Y-1.40000
X3.12815 Y-1.39900
X3.12715 Y-1.39900
X3.12715 Y-1.39800
X3.12615 Y-1.39800
X3.12615 Y-1.39700
X3.12515 Y-1.39700
X3.12515 Y-1.39600
X3.12415 Y-1.39600
X3.12415 Y-1.39500
X3.12315 Y-1.39500
X3.12315 Y-1.39400
X3.12215 Y-1.39400
X3.12215 Y-1.39300
X3.12115 Y-1.39300
X3.12115 Y-1.39200
X3.12015 Y-1.39200
X3.12015 Y-1.39100
X3.11915 Y-1.39100
X3.11915 Y-1.39000
X3.11815 Y-1.39000
X3.11815 Y-1.38900
X3.11715 Y-1.38900
X3.11715 Y-1.38800
X3.11615 Y-1.38800
X3.11615 Y-1.38700
X3.11515 Y-1.38700
X3.11515 Y-1.38600
X3.11415 Y-1.38600
X3.11415 Y-1.38500
X3.11315 Y-1.38500
X3.11315 Y-1.38400
X3.11215 Y-1.38400
X3.11215 Y-1.38300
X3.11115 Y-1.38300
X3.11115 Y-1.38200
X3.11015 Y-1.38200
X3.11015 Y-1.38100
X3.10915 Y-1.38100
X3.10915 Y-1.38000
X3.10815 Y-1.38000
X3.10815 Y-1.37900
X3.10715 Y-1.37900
X3.10715 Y-1.37800
X3.10615 Y-1.37800
X3.10615 Y-1.37700
X3.10515 Y-1.37700
X3.10515 Y-1.37600
X3.10415 Y-1.37600
X3.10415 Y-1.37500
X3.10315 Y-1.37500
X3.10315 Y-1.37400
X3.10215 Y-1.37400
X3.10215 Y-1.37300
X3.10115 Y-1.37300
X3.10115 Y-1.37200
X3.10015 Y-1.37200
X3.10015 Y-1.37100
X3.09915 Y-1.37100
X3.09915 Y-1.37000
X3.09815 Y-1.37000
X3.09815 Y-1.36900
X3.09715 Y-1.36900
X3.09715 Y-1.36800
X3.09615 Y-1.36800
X3.09615 Y-1.36700
X3.09515 Y-1.36700
X3.09515 Y-1.36600
X3.09415 Y-1.36600
X3.09415 Y-1.36500
X3.09315 Y-1.36500
X3.09315 Y-1.36400
X3.09215 Y-1.36400
X3.09215 Y-1.36300
X3.09115 Y-1.36300
X3.09115 Y-1.36200
X3.09015 Y-1.36200
X3.09015 Y-1.36100
X3.08915 Y-1.36100
X3.08915 Y-1.36000
X3.08815 Y-1.36000
X3.08815 Y-1.35900
X3.08715 Y-1.35900
X3.08715 Y-1.35800
X3.08615 Y-1.35800
X3.08615 Y-1.35700
X3.08515 Y-1.35700
X3.08515 Y-1.35600
X3.08415 Y-1.35600
X3.08415 Y-1.35500
X3.08315 Y-1.35500
X3.08315 Y-1.35400
X3.08215 Y-1.35400
X3.08215 Y-1.35300
X3.08115 Y-1.35300
X3.08115 Y-1.35200
X3.08015 Y-1.35200
X3.08015 Y-1.35100
X3.07915 Y-1.35100
X3.07915 Y-1.35000
X3.07815 Y-1.35000
X3.07815 Y-1.34900
X3.07715 Y-1.34900
X3.07715 Y-1.34800
X3.07615 Y-1.34800
X3.07615 Y-1.34700
X3.07515 Y-1.34700
X3.07515 Y-1.34600
X3.07415 Y-1.34600
X3.07415 Y-1.34500
X3.07315 Y-1.34500
X3.07315 Y-1.34400
X3.07215 Y-1.34400
X3.07215 Y-1.34300
X3.07115 Y-1.34300
X3.07115 Y-1.34200
X3.07015 Y-1.34200
X3.07015 Y-1.34100
X3.06915 Y-1.34100
X3.06915 Y-1.34000
X3.06815 Y-1.34000
X3.06815 Y-1.33900
X3.06715 Y-1.33900
X3.06715 Y-1.33800
X3.06615 Y-1.33800
X3.06615 Y-1.33700
X3.06515 Y-1.33700
X3.06515 Y-1.33600
X3.06415 Y-1.33600
X3.06415 Y-1.33500
X3.06315 Y-1.33500
X3.06315 Y-1.33400
X3.06215 Y-1.33400
X3.06215 Y-1.33300
X3.06115 Y-1.33300
X3.06115 Y-1.33200
X3.06015 Y-1.33200
X3.06015 Y-1.33100
X3.05915 Y-1.33100
X3.05915 Y-1.33000
X3.05815 Y-1.33000
X3.05815 Y-1.32900
X3.05715 Y-1.32900
X3.05715 Y-1.32800
X3.05615 Y-1.32800
X3.05615 Y-1.32700
X3.05515 Y-1.32700
X3.05515 Y-1.32600
X3.05415 Y-1.32600
X3.05415 Y-1.32500
X3.05315 Y-1.32500
X3.05315 Y-1.32400
X3.05215 Y-1.32400
X3.05215 Y-1.32300
X3.05115 Y-1.32300
X3.05115 Y-1.32200
X3.05015 Y-1.32200
X3.05015 Y-1.32100
X3.04915 Y-1.32100
X3.04915 Y-1.32000
X3.04815 Y-1.32000
X3.04815 Y-1.31900
X3.04715 Y-1.31900
X3.04715 Y-1.31800
X3.04615 Y-1.31800
X3.04615 Y-1.31700
X3.04515 Y-1.31700
X3.04515 Y-1.31600
X3.04415 Y-1.31600
X3.04415 Y-1.31500
X3.04315 Y-1.31500
X3.04315 Y-1.31400
X3.04215 Y-1.31400
X3.04215 Y-1.31300
X3.04115 Y-1.31300
X3.04115 Y-1.31200
X3.04015 Y-1.31200
X3.04015 Y-1.31100
X3.03915 Y-1.31100
X3.03915 Y-1.31000
X3.03815 Y-1.31000
X3.03815 Y-1.30900
X3.03715 Y-1.30900
X3.03715 Y-1.30800
X3.03615 Y-1.30800
X3.03615 Y-1.30700
X3.03515 Y-1.30700
X3.03515 Y-1.30600
X3.03415 Y-1.30600
X3.03415 Y-1.30500
X3.03315 Y-1.30500
X3.03315 Y-1.30400
X3.03215 Y-1.30400
X3.03215 Y-1.30300
X3.03115 Y-1.30300
X3.03115 Y-1.30200
X3.03015 Y-1.30200
X3.03015 Y-1.30100
X3.02915 Y-1.30100
X3.02915 Y-1.30000
X3.02815 Y-1.30000
X3.02815 Y-1.29900
X3.02715 Y-1.29900
X3.02715 Y-1.29800
X3.02615 Y-1.29800
X3.02615 Y-1.29700
X3.02515 Y-1.29700
X3.02515 Y-1.29600
X3.02415 Y-1.29600
X3.02415 Y-1.29500
X3.02315 Y-1.29500
X3.02315 Y-1.29400
X3.02215 Y-1.29400
X3.02215 Y-1.29300
X3.02115 Y-1.29300
X3.02115 Y-1.29200
X3.02015 Y-1.29200
X3.02015 Y-1.29100
X3.01915 Y-1.29100
X3.01915 Y-1.29000
X3.01815 Y-1.29000
X3.01815 Y-1.28900
X3.01715 Y-1.28900
X3.01715 Y-1.28800
X3.01615 Y-1.28800
X3.01615 Y-1.28700
X3.01515 Y-1.28700
X3.01515 Y-1.28600
X3.01415 Y-1.28600
X3.01415 Y-1.28500
X3.01315 Y-1.28500
X3.01315 Y-1.28400
X3.01215 Y-1.28400
X3.01215 Y-1.28300
X3.01115 Y-1.28300
X3.01115 Y-1.28200
X3.01015 Y-1.28200
X3.01015 Y-1.28100
X3.00915 Y-1.28100
X3.00915 Y-1.28000
X3.00815 Y-1.28000
X3.00815 Y-1.27900
X3.00715 Y-1.27900
X3.00715 Y-1.27800
X3.00615 Y-1.27800
X3.00615 Y-1.27700
X3.00515 Y-1.27700
X3.00515 Y-1.27600
X3.00415 Y-1.27600
X3.00415 Y-1.27500
X3.00315 Y-1.27500
X3.00315 Y-1.27400
X3.00215 Y-1.27400
X3.00215 Y-1.27300
X3.00115 Y-1.27300
X3.00115 Y-1.27200
X3.00015 Y-1.27200
X3.00015 Y-1.27100
X2.99915 Y-1.27100
X2.99915 Y-1.27000
X2.99815 Y-1.27000
X2.99815 Y-1.26900
X2.99715 Y-1.26900
X2.99715 Y-1.26800
X2.99615 Y-1.26800
X2.99615 Y-1.26700
X2.99515 Y-1.26700
X2.99515 Y-1.26600
X2.99415 Y-1.26600
X2.99415 Y-1.26500
X2.99315 Y-1.26500
X2.99315 Y-1.26400
X2.99215 Y-1.26400
X2.99215 Y-1.26300
X2.99115 Y-1.26300
X2.99115 Y-1.26200
X2.99015 Y-1.26200
X2.99015 Y-1.26100
X2.98915 Y-1.26100
X2.98915 Y-1.26000
X2.98815 Y-1.26000
X2.98815 Y-1.25900
X2.98715 Y-1.25900
X2.98715 Y-1.25800
X2.98615 Y-1.25800
X2.98615 Y-1.25700
X2.98515 Y-1.25700
X2.98515 Y-1.25600
X2.98415 Y-1.25600
X2.98415 Y-1.25500
X2.98315 Y-1.25500
X2.98315 Y-1.25400
X2.98215 Y-1.25400
X2.98215 Y-1.25300
X2.98115 Y-1.25300
X2.98115 Y-1.25200
X2.98015 Y-1.25200
X2.98015 Y-1.25100
X2.97915 Y-1.25100
X2.97915 Y-1.25000
X2.97815 Y-1.25000
X2.97815 Y-1.24900
X2.97715 Y-1.24900
X2.97715 Y-1.24800
X2.97615 Y-1.24800
X2.97615 Y-1.24700
X2.97515 Y-1.24700
X2.97515 Y-1.24600
X2.97415 Y-1.24600
X2.97415 Y-1.24500
X2.97315 Y-1.24500
X2.97315 Y-1.24400
X2.97215 Y-1.24400
X2.97215 Y-1.24300
X2.97115 Y-1.24300
X2.97115 Y-1.24200
X2.97015 Y-1.24200
X2.97015 Y-1.24100
X2.96915 Y-1.24100
X2.96915 Y-1.24000
X2.96815 Y-1.24000
X2.96815 Y-1.23900
X2.96715 Y-1.23900
X2.96715 Y-1.23800
X2.96615 Y-1.23800
X2.96615 Y-1.23700
X2.96515 Y-1.23700
X2.96515 Y-1.23600
X2.96415 Y-1.23600
X2.96415 Y-1.23500
X2.96315 Y-1.23500
X2.96315 Y-1.23400
X2.96215 Y-1.23400
X2.96215 Y-1.23300
X2.96115 Y-1.23300
X2.96115 Y-1.23200
X2.96015 Y-1.23200
X2.96015 Y-1.23100
X2.95915 Y-1.23100
X2.95915 Y-1.23000
X2.95815 Y-1.23000
X2.95815 Y-1.22900
X2.95715 Y-1.22900
X2.95715 Y-1.22800
X2.95615 Y-1.22800
X2.95615 Y-1.22700
X2.95515 Y-1.22700
X2.95515 Y-1.22600
X2.95415 Y-1.22600
X2.95415 Y-1.22500
X2.95315 Y-1.22500
X2.95315 Y-1.22400
X2.95215 Y-1.22400
X2.95215 Y-1.22300
X2.95115 Y-1.22300
X2.95115 Y-1.22200
X2.95015 Y-1.22200
X2.95015 Y-1.22100
X2.94915 Y-1.22100
X2.94915 Y-1.22000
X2.94815 Y-1.22000
X2.94815 Y-1.21900
X2.94715 Y-1.21900
X2.94715 Y-1.21800
X2.94615 Y-1.21800
X2.94615 Y-1.21700
X2.94515 Y-1.21700
X2.94515 Y-1.21600
X2.94415 Y-1.21600
X2.94415 Y-1.21500
X2.94315 Y-1.21500
X2.94315 Y-1.21400
X2.94215 Y-1.21400
X2.94215 Y-1.21300
X2.94115 Y-1.21300
X2.94115 Y-1.21200
X2.94015 Y-1.21200
X2.94015 Y-1.21100
X2.93915 Y-1.21100
X2.93915 Y-1.21000
X2.93815 Y-1.21000
X2.93815 Y-1.20900
X2.93715 Y-1.20900
X2.93715 Y-1.20800
X2.93615 Y-1.20800
X2.93615 Y-1.20700
X2.93515 Y-1.20700
X2.93515 Y-1.20600
X2.93415 Y-1.20600
X2.93415 Y-1.20500
X2.93315 Y-1.20500
X2.93315 Y-1.20400
X2.93215 Y-1.20400
X2.93215 Y-1.20300
X2.93115 Y-1.20300
X2.93115 Y-1.20200
X2.93015 Y-1.20200
X2.93015 Y-1.20100
X2.92915 Y-1.20100
X2.92915 Y-1.20000
X2.92815 Y-1.20000
X2.92815 Y-1.19900
X2.92715 Y-1.19900
X2.92715 Y-1.19800
X2.92615 Y-1.19800
X2.92615 Y-1.19700
X2.92515 Y-1.19700
X2.92515 Y-1.19600
X2.92415 Y-1.19600
X2.92415 Y-1.19500
X2.92315 Y-1.19500
X2.92315 Y-1.19400
X2.92215 Y-1.19400
X2.92215 Y-1.19300
X2.92115 Y-1.19300
X2.92115 Y-1.19200
X2.92015 Y-1.19200
X2.92015 Y-1.19100
X2.91915 Y-1.19100
X2.91915 Y-1.19000
X2.91815 Y-1.19000
X2.91815 Y-1.18900
X2.91715 Y-1.18900
X2.91715 Y-1.18800
X2.91615 Y-1.18800
X2.91615 Y-1.18700
X2.91515 Y-1.18700
X2.91515 Y-1.18600
X2.91415 Y-1.18600
X2.91415 Y-1.18500
X2.91315 Y-1.18500
X2.91315 Y-1.18400
X2.91215 Y-1.18400
X2.91215 Y-1.18300
X2.91115 Y-1.18300
X2.91115 Y-1.18200
X2.91015 Y-1.18200
X2.91015 Y-1.18100
X2.90915 Y-1.18100
X2.90915 Y-1.18000
X2.90815 Y-1.18000
X2.90815 Y-1.17900
X2.90715 Y-1.17900
X2.90715 Y-1.17800
X2.90615 Y-1.17800
X2.90615 Y-1.17700
X2.90515 Y-1.17700
X2.90515 Y-1.17600
X2.90415 Y-1.17600
X2.90415 Y-1.17500
X2.90315 Y-1.17500
X2.90315 Y-1.17400
X2.90215 Y-1.17400
X2.90215 Y-1.17300
X2.90115 Y-1.17300
X2.90115 Y-1.17200
X2.90015 Y-1.17200
X2.90015 Y-1.17100
X2.89915 Y-1.17100
X2.89915 Y-1.17000
X2.89815 Y-1.17000
X2.89815 Y-1.16900
X2.89715 Y-1.16900
X2.89715 Y-1.16800
X2.89615 Y-1.16800
X2.89615 Y-1.16700
X2.89515 Y-1.16700
X2.89515 Y-1.16600
X2.89415 Y-1.16600
X2.89415 Y-1.16500
X2.89315 Y-1.16500
X2.89315 Y-1.16400
X2.89215 Y-1.16400
X2.89215 Y-1.16300
X2.89115 Y-1.16300
X2.89115 Y-1.16200
X2.89015 Y-1.16200
X2.89015 Y-1.16100
X2.88915 Y-1.16100
X2.88915 Y-1.16000
X2.88815 Y-1.16000
X2.88815 Y-1.15900
X2.88715 Y-1.15900
X2.88715 Y-1.15800
X2.88615 Y-1.15800
X2.88615 Y-1.15700
X2.88515 Y-1.15700
X2.88515 Y-1.15600
X2.88415 Y-1.15600
X2.88415 Y-1.15500
X2.88315 Y-1.15500
X2.88315 Y-1.15400
X2.88215 Y-1.15400
X2.88215 Y-1.15300
X2.88115 Y-1.15300
X2.88115 Y-1.15200
X2.88015 Y-1.15200
X2.88015 Y-1.15100
X2.87915 Y-1.15100
X2.87915 Y-1.15000
X2.87815 Y-1.15000
X2.87815 Y-1.14900
X2.87715 Y-1.14900
X2.87715 Y-1.14800
X2.87615 Y-1.14800
X2.87615 Y-1.14700
X2.87515 Y-1.14700
X2.87515 Y-1.14600
X2.87415 Y-1.14600
X2.87415 Y-1.14500
X2.87315 Y-1.14500
X2.87315 Y-1.14400
X2.87215 Y-1.14400
X2.87215 Y-1.14300
X2.87115 Y-1.14300
X2.87115 Y-1.14200
X2.87015 Y-1.14200
X2.87015 Y-1.14100
X2.86915 Y-1.14100
X2.86915 Y-1.14000
X2.86815 Y-1.14000
X2.86815 Y-1.13900
X2.86715 Y-1.13900
X2.86715 Y-1.13800
X2.86615 Y-1.13800
X2.86615 Y-1.13700
X2.86515 Y-1.13700
X2.86515 Y-1.13600
X2.86415 Y-1.13600
X2.86415 Y-1.13500
X2.86315 Y-1.13500
X2.86315 Y-1.13400
X2.86215 Y-1.13400
X2.86215 Y-1.13300
X2.86115 Y-1.13300
X2.86115 Y-1.13200
X2.86015 Y-1.13200
X2.86015 Y-1.13100
X2.85915 Y-1.13100
X2.85915 Y-1.13000
X2.85815 Y-1.13000
X2.85815 Y-1.12900
X2.85715 Y-1.12900
X2.85715 Y-1.12800
X2.85615 Y-1.12800
X2.85615 Y-1.12700
X2.85515 Y-1.12700
X2.85515 Y-1.12600
X2.85415 Y-1.12600
X2.85415 Y-1.12500
X2.85315 Y-1.12500
X2.85315 Y-1.12400
X2.85215 Y-1.12400
X2.85215 Y-1.12300
X2.85115 Y-1.12300
X2.85115 Y-1.12200
X2.85015 Y-1.12200
X2.85015 Y-1.12100
X2.84915 Y-1.12100
X2.84915 Y-1.12000
X2.84815 Y-1.12000
X2.84815 Y-1.11900
X2.84715 Y-1.11900
X2.84715 Y-1.11800
X2.84615 Y-1.11800
X2.84615 Y-1.11700
X2.84515 Y-1.11700
X2.84515 Y-1.11600
X2.84415 Y-1.11600
X2.84415 Y-1.11500
X2.84315 Y-1.11500
X2.84315 Y-1.11400
X2.84215 Y-1.11400
X2.84215 Y-1.11300
X2.84115 Y-1.11300
X2.84115 Y-1.11200
X2.84015 Y-1.11200
X2.84015 Y-1.11100
X2.83915 Y-1.11100
X2.83915 Y-1.11000
X2.83815 Y-1.11000
X2.83815 Y-1.10900
X2.83715 Y-1.10900
X2.83715 Y-1.10800
X2.83615 Y-1.10800
X2.83615 Y-1.10700
X2.83515 Y-1.10700
X2.83515 Y-1.10600
X2.83415 Y-1.10600
X2.83415 Y-1.10500
X2.83315 Y-1.10500
X2.83315 Y-1.10400
X2.83215 Y-1.10400
X2.83215 Y-1.10300
X2.83115 Y-1.10300
X2.83115 Y-1.10200
X2.83015 Y-1.10200
X2.83015 Y-1.10100
X2.82915 Y-1.10100
X2.82915 Y-1.10000
X2.82815 Y-1.10000
X2.82815 Y-1.09900
X2.82715 Y-1.09900
X2.82715 Y-1.09800
X2.82615 Y-1.09800
X2.82615 Y-1.09700
X2.82515 Y-1.09700
X2.82515 Y-1.09600
X2.82415 Y-1.09600
X2.82415 Y-1.09500
X2.82315 Y-1.09500
X2.82315 Y-1.09400
X2.82215 Y-1.09400
X2.82215 Y-1.09300
X2.82115 Y-1.09300
X2.82115 Y-1.09200
X2.82015 Y-1.09200
X2.82015 Y-1.09100
X2.81915 Y-1.09100
X2.81915 Y-1.09000
X2.81815 Y-1.09000
X2.81815 Y-1.08900
X2.81715 Y-1.08900
X2.81715 Y-1.08800
X2.81615 Y-1.08800
X2.81615 Y-1.08700
X2.81515 Y-1.08700
X2.81515 Y-1.08600
X2.81415 Y-1.08600
X2.81415 Y-1.08500
X2.81315 Y-1.08500
X2.81315 Y-1.08400
X2.81215 Y-1.08400
X2.81215 Y-1.08300
X2.81115 Y-1.08300
X2.81115 Y-1.08200
X2.81015 Y-1.08200
X2.81015 Y-1.08100
X2.80915 Y-1.08100
X2.80915 Y-1.08000
X2.80815 Y-1.08000
X2.80815 Y-1.07900
X2.80715 Y-1.07900
X2.80715 Y-1.07800
X2.80615 Y-1.07800
X2.80615 Y-1.07700
X2.80515 Y-1.07700
X2.80515 Y-1.07600
X2.80415 Y-1.07600
X2.80415 Y-1.07500
X2.80315 Y-1.07500
X2.80315 Y-1.07400
X2.80215 Y-1.07400
X2.80215 Y-1.07300
X2.80115 Y-1.07300
X2.80115 Y-1.07200
X2.80015 Y-1.07200
X2.80015 Y-1.07100
X2.79915 Y-1.07100
X2.79915 Y-1.07000
X2.79815 Y-1.07000
X2.79815 Y-1.06900
X2.79715 Y-1.06900
X2.79715 Y-1.06800
X2.79615 Y-1.06800
X2.79615 Y-1.06700
X2.79515 Y-1.06700
X2.79515 Y-1.06600
X2.79415 Y-1.06600
X2.79415 Y-1.06500
X2.79315 Y-1.06500
X2.79315 Y-1.06400
X2.79215 Y-1.06400
X2.79215 Y-1.06300
X2.79115 Y-1.06300
X2.79115 Y-1.06200
X2.79015 Y-1.06200
X2.79015 Y-1.06100
X2.78915 Y-1.06100
X2.78915 Y-1.06000
X2.78815 Y-1.06000
X2.78815 Y-1.05900
X2.78715 Y-1.05900
X2.78715 Y-1.05800
X2.78615 Y-1.05800
X2.78615 Y-1.05700
X2.78515 Y-1.05700
X2.78515 Y-1.05600
X2.78415 Y-1.05600
X2.78415 Y-1.05500
X2.78315 Y-1.05500
X2.78315 Y-1.05400
X2.78215 Y-1.05400
X2.78215 Y-1.05300
X2.78115 Y-1.05300
X2.78115 Y-1.05200
X2.78015 Y-1.05200
X2.78015 Y-1.05100
X2.77915 Y-1.05100
X2.77915 Y-1.05000
X2.77815 Y-1.05000
X2.77815 Y-1.04900
X2.77715 Y-1.04900
X2.77715 Y-1.04800
X2.77615 Y-1.04800
X2.77615 Y-1.04700
X2.77515 Y-1.04700
X2.77515 Y-1.04600
X2.77415 Y-1.04600
X2.77415 Y-1.04500
X2.77315 Y-1.04500
X2.77315 Y-1.04400
X2.77215 Y-1.04400
X2.77215 Y-1.04300
X2.77115 Y-1.04300
X2.77115 Y-1.04200
X2.77015 Y-1.04200
X2.77015 Y-1.04100
X2.76915 Y-1.04100
X2.76915 Y-1.04000
X2.76815 Y-1.04000
X2.76815 Y-1.03900
X2.76715 Y-1.03900
X2.76715 Y-1.03800
X2.76615 Y-1.03800
X2.76615 Y-1.03700
X2.76515 Y-1.03700
X2.76515 Y-1.03600
X2.76415 Y-1.03600
X2.76415 Y-1.03500
X2.76315 Y-1.03500
X2.76315 Y-1.03400
X2.76215 Y-1.03400
X2.76215 Y-1.03300
X2.76115 Y-1.03300
X2.76115 Y-1.03200
X2.76015 Y-1.03200
X2.76015 Y-1.03100
X2.75915 Y-1.03100
X2.75915 Y-1.03000
X2.75815 Y-1.03000
X2.75815 Y-1.02900
X2.75715 Y-1.02900
X2.75715 Y-1.02800
X2.75615 Y-1.02800
X2.75615 Y-1.02700
X2.75515 Y-1.02700
X2.75515 Y-1.02600
X2.75415 Y-1.02600
X2.75415 Y-1.02500
X2.75315 Y-1.02500
X2.75315 Y-1.02400
X2.75215 Y-1.02400
X2.75215 Y-1.02300
X2.75115 Y-1.02300
X2.75115 Y-1.02200
X2.75015 Y-1.02200
X2.75015 Y-1.02100
X2.74915 Y-1.02100
X2.74915 Y-1.02000
X2.74815 Y-1.02000
X2.74815 Y-1.01900
X2.74715 Y-1.01900
X2.74715 Y-1.01800
X2.74615 Y-1.01800
X2.74615 Y-1.01700
X2.74515 Y-1.01700
X2.74515 Y-1.01600
X2.74415 Y-1.01600
X2.74415 Y-1.01500
X2.74315 Y-1.01500
X2.74315 Y-1.01400
X2.74215 Y-1.01400
X2.74215 Y-1.01300
X2.74115 Y-1.01300
X2.74115 Y-1.01200
X2.74015 Y-1.01200
X2.74015 Y-1.01100
X2.73915 Y-1.01100
X2.73915 Y-1.01000
X2.73815 Y-1.01000
X2.73815 Y-1.00900
X2.73715 Y-1.00900
X2.73715 Y-1.00800
X2.73615 Y-1.00800
X2.73615 Y-1.00700
X2.73515 Y-1.00700
X2.73515 Y-1.00600
X2.73415 Y-1.00600
X2.73415 Y-1.00500
X2.73315 Y-1.00500
X2.73315 Y-1.00400
X2.73215 Y-1.00400
X2.73215 Y-1.00300
X2.73115 Y-1.00300
X2.73115 Y-1.00200
X2.73015 Y-1.00200
X2.73015 Y-1.00100
X2.72915 Y-1.00100
X2.72915 Y-1.00000
X2.72815 Y-1.00000
X2.72815 Y-0.99900
X2.72715 Y-0.99900
X2.72715 Y-0.99800
X2.72615 Y-0.99800
X2.72615 Y-0.99700
X2.72515 Y-0.99700
X2.72515 Y-0.99600
X2.72215 Y-0.99600
X2.72215 Y-0.99500
X2.71915 Y-0.99500
X2.71915 Y-0.99400
X2.51515 Y-0.99400
X2.51515 Y-0.99500
X2.51215 Y-0.99500
X2.51215 Y-0.99600
X2.50915 Y-0.99600
X2.50915 Y-0.99700
X2.50815 Y-0.99700
X2.50815 Y-0.99800
X2.50715 Y-0.99800
X2.50715 Y-0.99900
X2.50615 Y-0.99900
X2.50615 Y-1.00000
X2.50515 Y-1.00000
X2.50515 Y-1.00100
X2.50415 Y-1.00100
X2.50415 Y-1.00200
X2.50315 Y-1.00200
X2.50315 Y-1.00300
X2.50215 Y-1.00300
X2.50215 Y-1.00400
X2.50115 Y-1.00400
X2.50115 Y-1.00500
X2.50015 Y-1.00500
X2.50015 Y-1.00600
X2.49915 Y-1.00600
X2.49915 Y-1.00700
X2.49815 Y-1.00700
X2.49815 Y-1.00800
X2.49715 Y-1.00800
X2.49715 Y-1.00900
X2.49615 Y-1.00900
X2.49615 Y-1.01000
X2.49515 Y-1.01000
X2.49515 Y-1.01100
X2.49415 Y-1.01100
X2.49415 Y-1.01200
X2.49315 Y-1.01200
X2.49315 Y-1.01300
X2.49215 Y-1.01300
X2.49215 Y-1.01400
X2.49115 Y-1.01400
X2.49115 Y-1.01500
X2.49015 Y-1.01500
X2.49015 Y-1.01600
X2.48915 Y-1.01600
X2.48915 Y-1.01700
X2.48815 Y-1.01700
X2.48815 Y-1.01800
X2.48715 Y-1.01800
X2.48715 Y-1.01900
X2.48615 Y-1.01900
X2.48615 Y-1.02000
X2.48515 Y-1.02000
X2.48515 Y-1.02100
X2.48415 Y-1.02100
X2.48415 Y-1.02200
X2.48315 Y-1.02200
X2.48315 Y-1.02300
X2.48215 Y-1.02300
X2.48215 Y-1.02400
X2.48115 Y-1.02400
X2.48115 Y-1.02500
X2.48015 Y-1.02500
X2.48015 Y-1.02600
X2.47915 Y-1.02600
X2.47915 Y-1.02700
X2.47815 Y-1.02700
X2.47815 Y-1.02800
X2.47715 Y-1.02800
X2.47715 Y-1.02900
X2.47615 Y-1.02900
X2.47615 Y-1.03000
X2.47515 Y-1.03000
X2.47515 Y-1.03100
X2.47415 Y-1.03100
X2.47415 Y-1.03200
X2.47315 Y-1.03200
X2.47315 Y-1.03500
X2.47215 Y-1.03500
X2.47215 Y-1.03600
X2.47115 Y-1.03600
X2.47115 Y-1.03900
X2.47015 Y-1.03900
X2.47015 Y-1.04200
X2.46915 Y-1.04200
X2.46915 Y-1.04800
X2.47015 Y-1.04800
X2.47015 Y-1.05000
X2.47115 Y-1.05000
X2.47115 Y-1.05300
X2.47215 Y-1.05300
X2.47215 Y-1.05400
X2.47315 Y-1.05400
X2.47315 Y-1.05700
X2.47415 Y-1.05700
X2.47415 Y-1.05900
X2.47515 Y-1.05900
X2.47515 Y-1.06000
X2.47615 Y-1.06000
X2.47615 Y-1.06100
X2.47715 Y-1.06100
X2.47715 Y-1.06200
X2.47815 Y-1.06200
X2.47815 Y-1.06300
X2.47915 Y-1.06300
X2.47915 Y-1.06500
X2.48115 Y-1.06500
X2.48115 Y-1.06600
X2.48215 Y-1.06600
X2.48215 Y-1.06700
X2.48315 Y-1.06700
X2.48315 Y-1.06800
X2.48515 Y-1.06800
X2.48515 Y-1.06900
X2.48615 Y-1.06900
X2.48615 Y-1.07000
X2.48715 Y-1.07000
X2.48715 Y-1.07100
X2.48815 Y-1.07100
X2.48815 Y-1.07200
X2.48915 Y-1.07200
X2.48915 Y-1.07300
X2.49215 Y-1.07300
X2.49215 Y-1.07200
X2.49315 Y-1.07200
X2.49315 Y-1.07100
X2.49415 Y-1.07100
X2.49415 Y-1.07000
X2.49515 Y-1.07000
X2.49515 Y-1.06900
X2.49615 Y-1.06900
X2.49615 Y-1.06800
X2.49815 Y-1.06800
X2.49815 Y-1.06700
X2.49915 Y-1.06700
X2.49915 Y-1.06600
X2.50015 Y-1.06600
X2.50015 Y-1.06500
X2.50215 Y-1.06500
X2.50215 Y-1.06300
X2.50315 Y-1.06300
X2.50315 Y-1.06200
X2.50415 Y-1.06200
X2.50415 Y-1.06100
X2.50515 Y-1.06100
X2.50515 Y-1.06000
X2.50615 Y-1.06000
X2.50615 Y-1.05900
X2.50715 Y-1.05900
X2.50715 Y-1.05700
X2.50815 Y-1.05700
X2.50815 Y-1.05600
X2.50915 Y-1.05600
X2.50915 Y-1.05500
X2.51015 Y-1.05500
X2.51015 Y-1.05400
X2.51115 Y-1.05400
X2.51115 Y-1.05300
X2.51215 Y-1.05300
X2.51215 Y-1.05200
X2.51315 Y-1.05200
X2.51315 Y-1.05100
X2.51515 Y-1.05100
X2.51515 Y-1.05000
X2.51615 Y-1.05000
X2.51615 Y-1.04900
X2.51715 Y-1.04900
X2.51715 Y-1.04800
X2.51815 Y-1.04800
X2.51815 Y-1.04700
X2.52115 Y-1.04700
X2.52115 Y-1.04600
X2.52315 Y-1.04600
X2.52315 Y-1.04500
X2.52515 Y-1.04500
X2.52515 Y-1.04400
X2.53115 Y-1.04400
X2.53115 Y-1.04300
X2.53815 Y-1.04300
X2.53815 Y-1.04200
X2.54415 Y-1.04200
X2.54415 Y-1.04300
X2.55015 Y-1.04300
X2.55015 Y-1.04400
X2.55615 Y-1.04400
X2.55615 Y-1.04500
X2.55815 Y-1.04500
X2.55815 Y-1.04600
X2.56015 Y-1.04600
X2.56015 Y-1.04700
X2.56315 Y-1.04700
X2.56315 Y-1.04800
X2.56415 Y-1.04800
X2.56415 Y-1.04900
X2.56515 Y-1.04900
X2.56515 Y-1.05000
X2.56615 Y-1.05000
X2.56615 Y-1.05100
X2.56815 Y-1.05100
X2.56815 Y-1.05200
X2.56915 Y-1.05200
X2.56915 Y-1.05300
X2.57015 Y-1.05300
X2.57015 Y-1.05400
X2.57115 Y-1.05400
X2.57115 Y-1.05500
X2.57215 Y-1.05500
X2.57215 Y-1.05600
X2.57315 Y-1.05600
X2.57315 Y-1.05700
X2.57415 Y-1.05700
X2.57415 Y-1.05900
X2.57515 Y-1.05900
X2.57515 Y-1.06000
X2.57615 Y-1.06000
X2.57615 Y-1.06100
X2.57715 Y-1.06100
X2.57715 Y-1.06200
X2.57815 Y-1.06200
X2.57815 Y-1.06400
X2.57915 Y-1.06400
X2.57915 Y-1.06600
X2.58015 Y-1.06600
X2.58015 Y-1.07100
X2.58115 Y-1.07100
X2.58115 Y-1.07200
X2.58215 Y-1.07200
X2.58215 Y-1.08100
X2.58315 Y-1.08100
X2.58315 Y-1.08800
X2.58215 Y-1.08800
X2.58215 Y-1.09700
X2.58115 Y-1.09700
X2.58115 Y-1.09800
X2.58015 Y-1.09800
X2.58015 Y-1.10300
X2.57915 Y-1.10300
X2.57915 Y-1.10500
X2.57815 Y-1.10500
X2.57815 Y-1.10700
X2.57715 Y-1.10700
X2.57715 Y-1.10800
X2.57615 Y-1.10800
X2.57615 Y-1.10900
X2.57515 Y-1.10900
X2.57515 Y-1.11000
X2.57415 Y-1.11000
X2.57415 Y-1.11200
X2.57315 Y-1.11200
X2.57315 Y-1.11300
X2.57215 Y-1.11300
X2.57215 Y-1.11400
X2.57115 Y-1.11400
X2.57115 Y-1.11500
X2.57015 Y-1.11500
X2.57015 Y-1.11600
X2.56915 Y-1.11600
X2.56915 Y-1.11700
X2.56815 Y-1.11700
X2.56815 Y-1.11800
X2.56715 Y-1.11800
X2.56715 Y-1.11900
X2.56615 Y-1.11900
X2.56615 Y-1.12000
X2.56515 Y-1.12000
X2.56515 Y-1.12100
X2.56415 Y-1.12100
X2.56415 Y-1.12200
X2.56315 Y-1.12200
X2.56315 Y-1.12400
X2.56215 Y-1.12400
X2.56215 Y-1.12600
X2.56115 Y-1.12600
X2.56115 Y-1.13500
X2.56215 Y-1.13500
X2.56215 Y-1.13800
X2.56315 Y-1.13800
X2.56315 Y-1.14100
X2.56415 Y-1.14100
X2.56415 Y-1.14200
X2.56515 Y-1.14200
X2.56515 Y-1.14500
X2.56615 Y-1.14500
X2.56615 Y-1.14600
X2.56715 Y-1.14600
X2.56715 Y-1.14700
X2.56815 Y-1.14700
X2.56815 Y-1.14800
X2.56915 Y-1.14800
X2.56915 Y-1.14900
X2.57015 Y-1.14900
X2.57015 Y-1.15000
X2.57115 Y-1.15000
X2.57115 Y-1.15100
X2.57215 Y-1.15100
X2.57215 Y-1.15200
X2.57315 Y-1.15200
X2.57315 Y-1.15300
X2.57415 Y-1.15300
X2.57415 Y-1.15400
X2.57515 Y-1.15400
X2.57515 Y-1.15500
X2.57615 Y-1.15500
X2.57615 Y-1.15600
X2.57715 Y-1.15600
X2.57715 Y-1.15700
X2.57815 Y-1.15700
X2.57815 Y-1.15800
X2.57915 Y-1.15800
X2.57915 Y-1.15900
X2.58015 Y-1.15900
X2.58015 Y-1.16000
X2.58115 Y-1.16000
X2.58115 Y-1.16100
X2.58215 Y-1.16100
X2.58215 Y-1.16200
X2.58315 Y-1.16200
X2.58315 Y-1.16300
X2.58415 Y-1.16300
X2.58415 Y-1.16400
X2.58515 Y-1.16400
X2.58515 Y-1.16500
X2.58615 Y-1.16500
X2.58615 Y-1.16600
X2.58715 Y-1.16600
X2.58715 Y-1.16700
X2.58815 Y-1.16700
X2.58815 Y-1.16800
X2.58915 Y-1.16800
X2.58915 Y-1.16900
X2.59015 Y-1.16900
X2.59015 Y-1.17000
X2.59115 Y-1.17000
X2.59115 Y-1.17100
X2.59215 Y-1.17100
X2.59215 Y-1.17200
X2.59315 Y-1.17200
X2.59315 Y-1.17300
X2.59415 Y-1.17300
X2.59415 Y-1.17400
X2.59515 Y-1.17400
X2.59515 Y-1.17500
X2.59615 Y-1.17500
X2.59615 Y-1.17600
X2.59715 Y-1.17600
X2.59715 Y-1.17700
X2.59815 Y-1.17700
X2.59815 Y-1.17800
X2.59915 Y-1.17800
X2.59915 Y-1.17900
X2.60015 Y-1.17900
X2.60015 Y-1.18000
X2.60115 Y-1.18000
X2.60115 Y-1.18100
X2.60215 Y-1.18100
X2.60215 Y-1.18200
X2.60315 Y-1.18200
X2.60315 Y-1.18300
X2.60415 Y-1.18300
X2.60415 Y-1.18400
X2.60515 Y-1.18400
X2.60515 Y-1.18500
X2.60615 Y-1.18500
X2.60615 Y-1.18600
X2.60715 Y-1.18600
X2.60715 Y-1.18700
X2.60815 Y-1.18700
X2.60815 Y-1.18800
X2.60915 Y-1.18800
X2.60915 Y-1.18900
X2.61015 Y-1.18900
X2.61015 Y-1.19000
X2.61115 Y-1.19000
X2.61115 Y-1.19100
X2.61215 Y-1.19100
X2.61215 Y-1.19200
X2.61315 Y-1.19200
X2.61315 Y-1.19300
X2.61415 Y-1.19300
X2.61415 Y-1.19400
X2.61515 Y-1.19400
X2.61515 Y-1.19500
X2.61615 Y-1.19500
X2.61615 Y-1.19600
X2.61715 Y-1.19600
X2.61715 Y-1.19700
X2.61815 Y-1.19700
X2.61815 Y-1.19800
X2.61915 Y-1.19800
X2.61915 Y-1.19900
X2.62015 Y-1.19900
X2.62015 Y-1.20000
X2.62115 Y-1.20000
X2.62115 Y-1.20100
X2.62215 Y-1.20100
X2.62215 Y-1.20200
X2.62315 Y-1.20200
X2.62315 Y-1.20300
X2.62415 Y-1.20300
X2.62415 Y-1.20400
X2.62515 Y-1.20400
X2.62515 Y-1.20500
X2.62615 Y-1.20500
X2.62615 Y-1.20600
X2.62715 Y-1.20600
X2.62715 Y-1.20700
X2.62815 Y-1.20700
X2.62815 Y-1.20800
X2.62915 Y-1.20800
X2.62915 Y-1.20900
X2.63015 Y-1.20900
X2.63015 Y-1.21000
X2.63115 Y-1.21000
X2.63115 Y-1.21100
X2.63215 Y-1.21100
X2.63215 Y-1.21200
X2.63315 Y-1.21200
X2.63315 Y-1.21300
X2.63415 Y-1.21300
X2.63415 Y-1.21400
X2.63515 Y-1.21400
X2.63515 Y-1.21500
X2.63615 Y-1.21500
X2.63615 Y-1.21600
X2.63715 Y-1.21600
X2.63715 Y-1.21700
X2.63815 Y-1.21700
X2.63815 Y-1.21800
X2.63915 Y-1.21800
X2.63915 Y-1.21900
X2.64015 Y-1.21900
X2.64015 Y-1.22000
X2.64115 Y-1.22000
X2.64115 Y-1.22100
X2.64215 Y-1.22100
X2.64215 Y-1.22200
X2.64315 Y-1.22200
X2.64315 Y-1.22300
X2.64415 Y-1.22300
X2.64415 Y-1.22400
X2.64515 Y-1.22400
X2.64515 Y-1.22500
X2.64615 Y-1.22500
X2.64615 Y-1.22600
X2.64715 Y-1.22600
X2.64715 Y-1.22700
X2.64815 Y-1.22700
X2.64815 Y-1.22800
X2.64915 Y-1.22800
X2.64915 Y-1.22900
X2.65015 Y-1.22900
X2.65015 Y-1.23000
X2.65115 Y-1.23000
X2.65115 Y-1.23100
X2.65215 Y-1.23100
X2.65215 Y-1.23200
X2.65315 Y-1.23200
X2.65315 Y-1.23300
X2.65415 Y-1.23300
X2.65415 Y-1.23400
X2.65515 Y-1.23400
X2.65515 Y-1.23500
X2.65615 Y-1.23500
X2.65615 Y-1.23600
X2.65715 Y-1.23600
X2.65715 Y-1.23700
X2.65815 Y-1.23700
X2.65815 Y-1.23800
X2.65915 Y-1.23800
X2.65915 Y-1.23900
X2.66015 Y-1.23900
X2.66015 Y-1.24000
X2.66115 Y-1.24000
X2.66115 Y-1.24100
X2.66215 Y-1.24100
X2.66215 Y-1.24200
X2.66315 Y-1.24200
X2.66315 Y-1.24300
X2.66415 Y-1.24300
X2.66415 Y-1.24400
X2.66515 Y-1.24400
X2.66515 Y-1.24500
X2.66615 Y-1.24500
X2.66615 Y-1.24600
X2.66715 Y-1.24600
X2.66715 Y-1.24700
X2.66815 Y-1.24700
X2.66815 Y-1.24800
X2.66915 Y-1.24800
X2.66915 Y-1.24900
X2.67015 Y-1.24900
X2.67015 Y-1.25000
X2.67115 Y-1.25000
X2.67115 Y-1.25100
X2.67215 Y-1.25100
X2.67215 Y-1.25200
X2.67315 Y-1.25200
X2.67315 Y-1.25300
X2.67415 Y-1.25300
X2.67415 Y-1.25400
X2.67515 Y-1.25400
X2.67515 Y-1.25500
X2.67615 Y-1.25500
X2.67615 Y-1.25600
X2.67715 Y-1.25600
X2.67715 Y-1.25700
X2.67815 Y-1.25700
X2.67815 Y-1.25800
X2.67915 Y-1.25800
X2.67915 Y-1.25900
X2.68015 Y-1.25900
X2.68015 Y-1.26000
X2.68115 Y-1.26000
X2.68115 Y-1.26100
X2.68215 Y-1.26100
X2.68215 Y-1.26200
X2.68315 Y-1.26200
X2.68315 Y-1.26300
X2.68415 Y-1.26300
X2.68415 Y-1.26400
X2.68515 Y-1.26400
X2.68515 Y-1.26500
X2.68615 Y-1.26500
X2.68615 Y-1.26600
X2.68715 Y-1.26600
X2.68715 Y-1.26700
X2.68815 Y-1.26700
X2.68815 Y-1.26800
X2.68915 Y-1.26800
X2.68915 Y-1.26900
X2.69015 Y-1.26900
X2.69015 Y-1.27000
X2.69115 Y-1.27000
X2.69115 Y-1.27100
X2.69215 Y-1.27100
X2.69215 Y-1.27200
X2.69315 Y-1.27200
X2.69315 Y-1.27300
X2.69415 Y-1.27300
X2.69415 Y-1.27400
X2.69515 Y-1.27400
X2.69515 Y-1.27500
X2.69615 Y-1.27500
X2.69615 Y-1.27600
X2.69715 Y-1.27600
X2.69715 Y-1.27700
X2.69815 Y-1.27700
X2.69815 Y-1.27800
X2.69915 Y-1.27800
X2.69915 Y-1.27900
X2.70015 Y-1.27900
X2.70015 Y-1.28000
X2.70115 Y-1.28000
X2.70115 Y-1.28100
X2.70215 Y-1.28100
X2.70215 Y-1.28200
X2.70315 Y-1.28200
X2.70315 Y-1.28300
X2.70415 Y-1.28300
X2.70415 Y-1.28400
X2.70515 Y-1.28400
X2.70515 Y-1.28500
X2.70615 Y-1.28500
X2.70615 Y-1.28600
X2.70715 Y-1.28600
X2.70715 Y-1.28700
X2.70815 Y-1.28700
X2.70815 Y-1.28800
X2.70915 Y-1.28800
X2.70915 Y-1.28900
X2.71015 Y-1.28900
X2.71015 Y-1.29000
X2.71115 Y-1.29000
X2.71115 Y-1.29100
X2.71215 Y-1.29100
X2.71215 Y-1.29200
X2.71315 Y-1.29200
X2.71315 Y-1.29300
X2.71415 Y-1.29300
X2.71415 Y-1.29400
X2.71515 Y-1.29400
X2.71515 Y-1.29500
X2.71615 Y-1.29500
X2.71615 Y-1.29600
X2.71715 Y-1.29600
X2.71715 Y-1.29700
X2.71815 Y-1.29700
X2.71815 Y-1.29800
X2.71915 Y-1.29800
X2.71915 Y-1.29900
X2.72015 Y-1.29900
X2.72015 Y-1.30000
X2.72115 Y-1.30000
X2.72115 Y-1.30100
X2.72215 Y-1.30100
X2.72215 Y-1.30200
X2.72315 Y-1.30200
X2.72315 Y-1.30300
X2.72415 Y-1.30300
X2.72415 Y-1.30400
X2.72515 Y-1.30400
X2.72515 Y-1.30500
X2.72615 Y-1.30500
X2.72615 Y-1.30600
X2.72715 Y-1.30600
X2.72715 Y-1.30700
X2.72815 Y-1.30700
X2.72815 Y-1.30800
X2.72915 Y-1.30800
X2.72915 Y-1.30900
X2.73015 Y-1.30900
X2.73015 Y-1.31000
X2.73115 Y-1.31000
X2.73115 Y-1.31100
X2.73215 Y-1.31100
X2.73215 Y-1.31200
X2.73315 Y-1.31200
X2.73315 Y-1.31300
X2.73415 Y-1.31300
X2.73415 Y-1.31400
X2.73515 Y-1.31400
X2.73515 Y-1.31500
X2.73615 Y-1.31500
X2.73615 Y-1.31600
X2.73715 Y-1.31600
X2.73715 Y-1.31700
X2.73815 Y-1.31700
X2.73815 Y-1.31800
X2.73915 Y-1.31800
X2.73915 Y-1.31900
X2.74015 Y-1.31900
X2.74015 Y-1.32000
X2.74115 Y-1.32000
X2.74115 Y-1.32100
X2.74215 Y-1.32100
X2.74215 Y-1.32200
X2.74315 Y-1.32200
X2.74315 Y-1.32300
X2.74415 Y-1.32300
X2.74415 Y-1.32400
X2.74515 Y-1.32400
X2.74515 Y-1.32500
X2.74615 Y-1.32500
X2.74615 Y-1.32600
X2.74715 Y-1.32600
X2.74715 Y-1.32700
X2.74815 Y-1.32700
X2.74815 Y-1.32800
X2.74915 Y-1.32800
X2.74915 Y-1.32900
X2.75015 Y-1.32900
X2.75015 Y-1.33000
X2.75115 Y-1.33000
X2.75115 Y-1.33100
X2.75215 Y-1.33100
X2.75215 Y-1.33200
X2.75315 Y-1.33200
X2.75315 Y-1.33300
X2.75415 Y-1.33300
X2.75415 Y-1.33400
X2.75515 Y-1.33400
X2.75515 Y-1.33500
X2.75615 Y-1.33500
X2.75615 Y-1.33600
X2.75715 Y-1.33600
X2.75715 Y-1.33700
X2.75815 Y-1.33700
X2.75815 Y-1.33800
X2.75915 Y-1.33800
X2.75915 Y-1.33900
X2.76015 Y-1.33900
X2.76015 Y-1.34000
X2.76115 Y-1.34000
X2.76115 Y-1.34100
X2.76215 Y-1.34100
X2.76215 Y-1.34200
X2.76315 Y-1.34200
X2.76315 Y-1.34300
X2.76415 Y-1.34300
X2.76415 Y-1.34400
X2.76515 Y-1.34400
X2.76515 Y-1.34500
X2.76615 Y-1.34500
X2.76615 Y-1.34600
X2.76715 Y-1.34600
X2.76715 Y-1.34700
X2.76815 Y-1.34700
X2.76815 Y-1.34800
X2.76915 Y-1.34800
X2.76915 Y-1.34900
X2.77015 Y-1.34900
X2.77015 Y-1.35000
X2.77115 Y-1.35000
X2.77115 Y-1.35100
X2.77215 Y-1.35100
X2.77215 Y-1.35200
X2.77315 Y-1.35200
X2.77315 Y-1.35300
X2.77415 Y-1.35300
X2.77415 Y-1.35400
X2.77515 Y-1.35400
X2.77515 Y-1.35500
X2.77615 Y-1.35500
X2.77615 Y-1.35600
X2.77715 Y-1.35600
X2.77715 Y-1.35700
X2.77815 Y-1.35700
X2.77815 Y-1.35800
X2.77915 Y-1.35800
X2.77915 Y-1.35900
X2.78015 Y-1.35900
X2.78015 Y-1.36000
X2.78115 Y-1.36000
X2.78115 Y-1.36100
X2.78215 Y-1.36100
X2.78215 Y-1.36200
X2.78315 Y-1.36200
X2.78315 Y-1.36300
X2.78415 Y-1.36300
X2.78415 Y-1.36400
X2.78515 Y-1.36400
X2.78515 Y-1.36500
X2.78615 Y-1.36500
X2.78615 Y-1.36600
X2.78715 Y-1.36600
X2.78715 Y-1.36700
X2.78815 Y-1.36700
X2.78815 Y-1.36800
X2.78915 Y-1.36800
X2.78915 Y-1.36900
X2.79015 Y-1.36900
X2.79015 Y-1.37000
X2.79115 Y-1.37000
X2.79115 Y-1.37100
X2.79215 Y-1.37100
X2.79215 Y-1.37200
X2.79315 Y-1.37200
X2.79315 Y-1.37300
X2.79415 Y-1.37300
X2.79415 Y-1.37400
X2.79515 Y-1.37400
X2.79515 Y-1.37500
X2.79615 Y-1.37500
X2.79615 Y-1.37600
X2.79715 Y-1.37600
X2.79715 Y-1.37700
X2.79815 Y-1.37700
X2.79815 Y-1.37800
X2.79915 Y-1.37800
X2.79915 Y-1.37900
X2.80015 Y-1.37900
X2.80015 Y-1.38000
X2.80115 Y-1.38000
X2.80115 Y-1.38100
X2.80215 Y-1.38100
X2.80215 Y-1.38200
X2.80315 Y-1.38200
X2.80315 Y-1.38300
X2.80415 Y-1.38300
X2.80415 Y-1.38400
X2.80515 Y-1.38400
X2.80515 Y-1.38500
X2.80615 Y-1.38500
X2.80615 Y-1.38600
X2.80715 Y-1.38600
X2.80715 Y-1.38700
X2.80815 Y-1.38700
X2.80815 Y-1.38800
X2.80915 Y-1.38800
X2.80915 Y-1.38900
X2.81015 Y-1.38900
X2.81015 Y-1.39000
X2.81115 Y-1.39000
X2.81115 Y-1.39100
X2.81215 Y-1.39100
X2.81215 Y-1.39200
X2.81315 Y-1.39200
X2.81315 Y-1.39300
X2.81415 Y-1.39300
X2.81415 Y-1.39400
X2.81515 Y-1.39400
X2.81515 Y-1.39500
X2.81615 Y-1.39500
X2.81615 Y-1.39600
X2.81715 Y-1.39600
X2.81715 Y-1.39700
X2.81815 Y-1.39700
X2.81815 Y-1.39800
X2.81915 Y-1.39800
X2.81915 Y-1.39900
X2.82015 Y-1.39900
X2.82015 Y-1.40000
X2.82115 Y-1.40000
X2.82115 Y-1.40100
X2.82215 Y-1.40100
X2.82215 Y-1.40200
X2.82315 Y-1.40200
X2.82315 Y-1.40300
X2.82415 Y-1.40300
X2.82415 Y-1.40400
X2.82515 Y-1.40400
X2.82515 Y-1.40500
X2.82615 Y-1.40500
X2.82615 Y-1.40600
X2.82715 Y-1.40600
X2.82715 Y-1.40700
X2.82815 Y-1.40700
X2.82815 Y-1.40800
X2.82915 Y-1.40800
X2.82915 Y-1.40900
X2.83015 Y-1.40900
X2.83015 Y-1.41000
X2.83115 Y-1.41000
X2.83115 Y-1.41100
X2.83215 Y-1.41100
X2.83215 Y-1.41200
X2.83315 Y-1.41200
X2.83315 Y-1.41300
X2.83415 Y-1.41300
X2.83415 Y-1.41400
X2.83515 Y-1.41400
X2.83515 Y-1.41500
X2.83615 Y-1.41500
X2.83615 Y-1.41600
X2.83715 Y-1.41600
X2.83715 Y-1.41700
X2.83815 Y-1.41700
X2.83815 Y-1.41800
X2.83915 Y-1.41800
X2.83915 Y-1.41900
X2.84015 Y-1.41900
X2.84015 Y-1.42000
X2.84115 Y-1.42000
X2.84115 Y-1.42100
X2.84215 Y-1.42100
X2.84215 Y-1.42200
X2.84315 Y-1.42200
X2.84315 Y-1.42300
X2.84415 Y-1.42300
X2.84415 Y-1.42400
X2.84515 Y-1.42400
X2.84515 Y-1.42500
X2.84615 Y-1.42500
X2.84615 Y-1.42600
X2.84715 Y-1.42600
X2.84715 Y-1.42700
X2.84815 Y-1.42700
X2.84815 Y-1.42800
X2.84915 Y-1.42800
X2.84915 Y-1.42900
X2.85015 Y-1.42900
X2.85015 Y-1.43000
X2.85115 Y-1.43000
X2.85115 Y-1.43100
X2.85215 Y-1.43100
X2.85215 Y-1.43200
X2.85315 Y-1.43200
X2.85315 Y-1.43300
X2.85415 Y-1.43300
X2.85415 Y-1.43400
X2.85515 Y-1.43400
X2.85515 Y-1.43500
X2.85615 Y-1.43500
X2.85615 Y-1.43600
X2.85715 Y-1.43600
X2.85715 Y-1.43700
X2.85815 Y-1.43700
X2.85815 Y-1.43800
X2.85915 Y-1.43800
X2.85915 Y-1.43900
X2.86015 Y-1.43900
X2.86015 Y-1.44000
X2.86115 Y-1.44000
X2.86115 Y-1.44100
X2.86215 Y-1.44100
X2.86215 Y-1.44200
X2.86315 Y-1.44200
X2.86315 Y-1.44300
X2.86415 Y-1.44300
X2.86415 Y-1.44400
X2.86515 Y-1.44400
X2.86515 Y-1.44500
X2.86615 Y-1.44500
X2.86615 Y-1.44600
X2.86715 Y-1.44600
X2.86715 Y-1.44700
X2.86815 Y-1.44700
X2.86815 Y-1.44800
X2.86915 Y-1.44800
X2.86915 Y-1.44900
X2.87015 Y-1.44900
X2.87015 Y-1.45000
X2.87115 Y-1.45000
X2.87115 Y-1.45100
X2.87215 Y-1.45100
X2.87215 Y-1.45200
X2.87315 Y-1.45200
X2.87315 Y-1.45300
X2.87415 Y-1.45300
X2.87415 Y-1.45400
X2.87515 Y-1.45400
X2.87515 Y-1.45500
X2.87615 Y-1.45500
X2.87615 Y-1.45600
X2.87715 Y-1.45600
X2.87715 Y-1.45700
X2.87815 Y-1.45700
X2.87815 Y-1.45800
X2.87915 Y-1.45800
X2.87915 Y-1.45900
X2.88015 Y-1.45900
X2.88015 Y-1.46000
X2.88115 Y-1.46000
X2.88115 Y-1.46100
X2.88215 Y-1.46100
X2.88215 Y-1.46200
X2.88315 Y-1.46200
X2.88315 Y-1.46300
X2.88415 Y-1.46300
X2.88415 Y-1.46400
X2.88515 Y-1.46400
X2.88515 Y-1.46500
X2.88615 Y-1.46500
X2.88615 Y-1.46600
X2.88715 Y-1.46600
X2.88715 Y-1.46700
X2.88815 Y-1.46700
X2.88815 Y-1.46800
X2.88915 Y-1.46800
X2.88915 Y-1.46900
X2.89015 Y-1.46900
X2.89015 Y-1.47000
X2.89115 Y-1.47000
X2.89115 Y-1.47100
X2.89215 Y-1.47100
X2.89215 Y-1.47200
X2.89315 Y-1.47200
X2.89315 Y-1.47300
X2.89415 Y-1.47300
X2.89415 Y-1.47400
X2.89515 Y-1.47400
X2.89515 Y-1.47500
X2.89615 Y-1.47500
X2.89615 Y-1.47600
X2.89715 Y-1.47600
X2.89715 Y-1.47700
X2.89815 Y-1.47700
X2.89815 Y-1.47800
X2.89915 Y-1.47800
X2.89915 Y-1.47900
X2.90015 Y-1.47900
X2.90015 Y-1.48000
X2.90115 Y-1.48000
X2.90115 Y-1.48100
X2.90215 Y-1.48100
X2.90215 Y-1.48200
X2.90315 Y-1.48200
X2.90315 Y-1.48300
X2.90415 Y-1.48300
X2.90415 Y-1.48400
X2.90515 Y-1.48400
X2.90515 Y-1.48500
X2.90615 Y-1.48500
X2.90615 Y-1.48600
X2.90715 Y-1.48600
X2.90715 Y-1.48700
X2.90815 Y-1.48700
X2.90815 Y-1.48800
X2.90915 Y-1.48800
X2.90915 Y-1.48900
X2.91015 Y-1.48900
X2.91015 Y-1.49000
X2.91115 Y-1.49000
X2.91115 Y-1.49100
X2.91215 Y-1.49100
X2.91215 Y-1.49200
X2.91315 Y-1.49200
X2.91315 Y-1.49300
X2.91415 Y-1.49300
X2.91415 Y-1.49400
X2.91515 Y-1.49400
X2.91515 Y-1.49500
X2.91615 Y-1.49500
X2.91615 Y-1.49600
X2.91715 Y-1.49600
X2.91715 Y-1.49700
X2.91815 Y-1.49700
X2.91815 Y-1.49800
X2.91915 Y-1.49800
X2.91915 Y-1.49900
X2.92015 Y-1.49900
X2.92015 Y-1.50000
X2.92115 Y-1.50000
X2.92115 Y-1.50100
X2.92215 Y-1.50100
X2.92215 Y-1.50200
X2.92315 Y-1.50200
X2.92315 Y-1.50300
X2.92415 Y-1.50300
X2.92415 Y-1.50400
X2.92515 Y-1.50400
X2.92515 Y-1.50500
X2.92615 Y-1.50500
X2.92615 Y-1.50600
X2.92715 Y-1.50600
X2.92715 Y-1.50700
X2.92815 Y-1.50700
X2.92815 Y-1.50800
X2.92915 Y-1.50800
X2.92915 Y-1.50900
X2.93015 Y-1.50900
X2.93015 Y-1.51000
X2.93115 Y-1.51000
X2.93115 Y-1.51100
X2.93215 Y-1.51100
X2.93215 Y-1.51200
X2.93315 Y-1.51200
X2.93315 Y-1.51300
X2.93415 Y-1.51300
X2.93415 Y-1.51400
X2.93515 Y-1.51400
X2.93515 Y-1.51500
X2.93615 Y-1.51500
X2.93615 Y-1.51600
X2.93715 Y-1.51600
X2.93715 Y-1.51700
X2.93815 Y-1.51700
X2.93815 Y-1.51800
X2.93915 Y-1.51800
X2.93915 Y-1.51900
X2.94015 Y-1.51900
X2.94015 Y-1.52000
X2.94115 Y-1.52000
X2.94115 Y-1.52100
X2.94215 Y-1.52100
X2.94215 Y-1.52200
X2.94315 Y-1.52200
X2.94315 Y-1.52300
X2.94415 Y-1.52300
X2.94415 Y-1.52400
X2.94515 Y-1.52400
X2.94515 Y-1.52500
X2.94615 Y-1.52500
X2.94615 Y-1.52600
X2.94715 Y-1.52600
X2.94715 Y-1.52700
X2.94815 Y-1.52700
X2.94815 Y-1.52800
X2.94915 Y-1.52800
X2.94915 Y-1.52900
X2.95015 Y-1.52900
X2.95015 Y-1.53000
X2.95115 Y-1.53000
X2.95115 Y-1.53100
X2.95215 Y-1.53100
X2.95215 Y-1.53200
X2.95315 Y-1.53200
X2.95315 Y-1.53300
X2.95415 Y-1.53300
X2.95415 Y-1.53400
X2.95515 Y-1.53400
X2.95515 Y-1.53500
X2.95615 Y-1.53500
X2.95615 Y-1.53600
X2.95715 Y-1.53600
X2.95715 Y-1.53700
X2.95815 Y-1.53700
X2.95815 Y-1.53800
X2.95915 Y-1.53800
X2.95915 Y-1.53900
X2.96015 Y-1.53900
X2.96015 Y-1.54000
X2.96115 Y-1.54000
X2.96115 Y-1.54100
X2.96215 Y-1.54100
X2.96215 Y-1.54200
X2.96315 Y-1.54200
X2.96315 Y-1.54300
X2.96415 Y-1.54300
X2.96415 Y-1.54400
X2.96515 Y-1.54400
X2.96515 Y-1.54500
X2.96615 Y-1.54500
X2.96615 Y-1.54600
X2.96715 Y-1.54600
X2.96715 Y-1.54700
X2.96815 Y-1.54700
X2.96815 Y-1.54800
X2.96915 Y-1.54800
X2.96915 Y-1.54900
X2.97015 Y-1.54900
X2.97015 Y-1.55000
X2.97115 Y-1.55000
X2.97115 Y-1.55100
X2.97215 Y-1.55100
X2.97215 Y-1.55200
X2.97315 Y-1.55200
X2.97315 Y-1.55300
X2.97415 Y-1.55300
X2.97415 Y-1.55400
X2.97515 Y-1.55400
X2.97515 Y-1.55500
X2.97615 Y-1.55500
X2.97615 Y-1.55600
X2.97715 Y-1.55600
X2.97715 Y-1.55700
X2.97815 Y-1.55700
X2.97815 Y-1.55800
X2.97915 Y-1.55800
X2.97915 Y-1.55900
X2.98015 Y-1.55900
X2.98015 Y-1.56000
X2.98115 Y-1.56000
X2.98115 Y-1.56100
X2.98215 Y-1.56100
X2.98215 Y-1.56200
X2.98315 Y-1.56200
X2.98315 Y-1.56300
X2.98415 Y-1.56300
X2.98415 Y-1.56400
X2.98515 Y-1.56400
X2.98515 Y-1.56500
X2.98615 Y-1.56500
X2.98615 Y-1.56600
X2.98715 Y-1.56600
X2.98715 Y-1.56700
X2.98815 Y-1.56700
X2.98815 Y-1.56800
X2.98915 Y-1.56800
X2.98915 Y-1.56900
X2.99015 Y-1.56900
X2.99015 Y-1.57000
X2.99115 Y-1.57000
X2.99115 Y-1.57100
X2.99215 Y-1.57100
X2.99215 Y-1.57200
X2.99315 Y-1.57200
X2.99315 Y-1.57300
X2.99415 Y-1.57300
X2.99415 Y-1.57400
X2.99515 Y-1.57400
X2.99515 Y-1.57500
X2.99615 Y-1.57500
X2.99615 Y-1.57600
X2.99715 Y-1.57600
X2.99715 Y-1.57700
X2.99815 Y-1.57700
X2.99815 Y-1.57800
X2.99915 Y-1.57800
X2.99915 Y-1.57900
X3.00015 Y-1.57900
X3.00015 Y-1.58000
X3.00115 Y-1.58000
X3.00115 Y-1.58100
X3.00215 Y-1.58100
X3.00215 Y-1.58200
X3.00315 Y-1.58200
X3.00315 Y-1.58300
X3.00415 Y-1.58300
X3.00415 Y-1.58400
X3.00515 Y-1.58400
X3.00515 Y-1.58500
X3.00615 Y-1.58500
X3.00615 Y-1.58600
X3.00715 Y-1.58600
X3.00715 Y-1.58700
X3.00815 Y-1.58700
X3.00815 Y-1.58800
X3.00915 Y-1.58800
X3.00915 Y-1.58900
X3.01015 Y-1.58900
X3.01015 Y-1.59000
X3.01115 Y-1.59000
X3.01115 Y-1.59100
X3.01215 Y-1.59100
X3.01215 Y-1.59200
X3.01315 Y-1.59200
X3.01315 Y-1.59300
X3.01415 Y-1.59300
X3.01415 Y-1.59400
X3.01515 Y-1.59400
X3.01515 Y-1.59500
X3.01615 Y-1.59500
X3.01615 Y-1.59600
X3.01715 Y-1.59600
X3.01715 Y-1.59700
X3.01815 Y-1.59700
X3.01815 Y-1.59800
X3.01915 Y-1.59800
X3.01915 Y-1.59900
X3.02015 Y-1.59900
X3.02015 Y-1.60000
X3.02115 Y-1.60000
X3.02115 Y-1.60100
X3.02215 Y-1.60100
X3.02215 Y-1.60200
X3.02315 Y-1.60200
X3.02315 Y-1.60300
X3.02415 Y-1.60300
X3.02415 Y-1.60400
X3.02515 Y-1.60400
X3.02515 Y-1.60500
X3.02615 Y-1.60500
X3.02615 Y-1.60600
X3.02715 Y-1.60600
X3.02715 Y-1.60700
X3.02815 Y-1.60700
X3.02815 Y-1.60800
X3.02915 Y-1.60800
X3.02915 Y-1.60900
X3.03015 Y-1.60900
X3.03015 Y-1.61000
X3.03115 Y-1.61000
X3.03115 Y-1.61100
X3.03215 Y-1.61100
X3.03215 Y-1.61200
X3.03315 Y-1.61200
X3.03315 Y-1.61300
X3.03415 Y-1.61300
X3.03415 Y-1.61400
X3.03515 Y-1.61400
X3.03515 Y-1.61500
X3.03615 Y-1.61500
X3.03615 Y-1.61600
X3.03715 Y-1.61600
X3.03715 Y-1.61700
X3.03815 Y-1.61700
X3.03815 Y-1.61800
X3.03915 Y-1.61800
X3.03915 Y-1.61900
X3.04015 Y-1.61900
X3.04015 Y-1.62000
X3.04115 Y-1.62000
X3.04115 Y-1.62100
X3.04215 Y-1.62100
X3.04215 Y-1.62200
X3.04315 Y-1.62200
X3.04315 Y-1.62300
X3.04415 Y-1.62300
X3.04415 Y-1.62400
X3.04515 Y-1.62400
X3.04515 Y-1.62500
X3.04615 Y-1.62500
X3.04615 Y-1.62600
X3.04715 Y-1.62600
X3.04715 Y-1.62700
X3.04815 Y-1.62700
X3.04815 Y-1.62800
X3.04915 Y-1.62800
X3.04915 Y-1.62900
X3.05015 Y-1.62900
X3.05015 Y-1.63000
X3.05115 Y-1.63000
X3.05115 Y-1.63100
X3.05215 Y-1.63100
X3.05215 Y-1.63200
X3.05315 Y-1.63200
X3.05315 Y-1.63300
X3.05415 Y-1.63300
X3.05415 Y-1.63400
X3.05515 Y-1.63400
X3.05515 Y-1.63500
X3.05615 Y-1.63500
X3.05615 Y-1.63600
X3.05715 Y-1.63600
X3.05715 Y-1.63700
X3.05815 Y-1.63700
X3.05815 Y-1.63800
X3.05915 Y-1.63800
X3.05915 Y-1.63900
X3.06015 Y-1.63900
X3.06015 Y-1.64000
X3.06115 Y-1.64000
X3.06115 Y-1.64100
X3.06215 Y-1.64100
X3.06215 Y-1.64200
X3.06515 Y-1.64200
X3.06515 Y-1.64300
X3.06815 Y-1.64300
X3.06815 Y-1.64400
X3.07915 Y-1.64400
X3.07915 Y-1.64300
X3.10215 Y-1.64300
X3.10215 Y-1.64400
X3.10515 Y-1.64400
X3.10515 Y-1.64500
X3.10815 Y-1.64500
X3.10815 Y-1.64600
X3.11315 Y-1.64600
X3.11315 Y-1.64700
X3.11515 Y-1.64700
X3.11515 Y-1.64800
X3.11715 Y-1.64800
X3.11715 Y-1.64900
X3.11815 Y-1.64900
X3.11815 Y-1.65000
X3.12015 Y-1.65000
X3.12015 Y-1.65100
X3.12215 Y-1.65100
X3.12215 Y-1.65200
X3.12315 Y-1.65200
X3.12315 Y-1.65300
X3.12515 Y-1.65300
X3.12515 Y-1.65400
X3.12615 Y-1.65400
X3.12615 Y-1.65500
X3.12715 Y-1.65500
X3.12715 Y-1.65600
X3.12915 Y-1.65600
X3.12915 Y-1.65700
X3.13015 Y-1.65700
X3.13015 Y-1.65800
X3.13115 Y-1.65800
X3.13115 Y-1.66000
X3.13215 Y-1.66000
X3.13215 Y-1.66100
X3.13315 Y-1.66100
X3.13315 Y-1.66200
X3.13415 Y-1.66200
X3.13415 Y-1.66300
X3.13515 Y-1.66300
X3.13515 Y-1.66500
X3.13615 Y-1.66500
X3.13615 Y-1.66600
X3.13715 Y-1.66600
X3.13715 Y-1.66800
X3.13815 Y-1.66800
X3.13815 Y-1.67000
X3.13915 Y-1.67000
X3.13915 Y-1.67100
X3.14015 Y-1.67100
X3.14015 Y-1.67300
X3.14115 Y-1.67300
X3.14115 Y-1.67500
X3.14215 Y-1.67500
X3.14215 Y-1.67700
X3.14315 Y-1.67700
X3.14315 Y-1.68300
X3.14415 Y-1.68300
X3.14415 Y-1.68500
X3.14515 Y-1.68500
X3.14515 Y-1.69300
X3.14615 Y-1.69300
X3.14615 Y-1.70200
X3.14515 Y-1.70200
X3.14515 Y-1.71000
X3.14415 Y-1.71000
X3.14415 Y-1.71200
X3.14315 Y-1.71200
X3.14315 Y-1.71800
X3.14215 Y-1.71800
X3.14215 Y-1.72000
X3.14115 Y-1.72000
X3.14115 Y-1.72200
X3.14015 Y-1.72200
X3.14015 Y-1.72400
X3.13915 Y-1.72400
X3.13915 Y-1.72500
X3.13815 Y-1.72500
X3.13815 Y-1.72700
X3.13715 Y-1.72700
X3.13715 Y-1.72900
X3.13615 Y-1.72900
X3.13615 Y-1.73000
X3.13515 Y-1.73000
X3.13515 Y-1.73200
X3.13415 Y-1.73200
X3.13415 Y-1.73300
X3.13315 Y-1.73300
X3.13315 Y-1.73400
X3.13215 Y-1.73400
X3.13215 Y-1.73500
X3.13115 Y-1.73500
X3.13115 Y-1.73700
X3.13015 Y-1.73700
X3.13015 Y-1.73800
X3.12915 Y-1.73800
X3.12915 Y-1.73900
X3.12715 Y-1.73900
X3.12715 Y-1.74000
X3.12615 Y-1.74000
X3.12615 Y-1.74100
X3.12515 Y-1.74100
X3.12515 Y-1.74200
X3.12315 Y-1.74200
X3.12315 Y-1.74300
X3.12215 Y-1.74300
X3.12215 Y-1.74400
X3.12015 Y-1.74400
X3.12015 Y-1.74500
X3.11815 Y-1.74500
X3.11815 Y-1.74600
X3.11715 Y-1.74600
X3.11715 Y-1.74700
X3.11515 Y-1.74700
X3.11515 Y-1.74800
X3.11315 Y-1.74800
X3.11315 Y-1.74900
X3.10815 Y-1.74900
X3.10815 Y-1.75000
X3.10515 Y-1.75000
X3.10515 Y-1.75100
X3.10215 Y-1.75100
X3.10215 Y-1.75200
X3.09515 Y-1.75200
X3.09515 Y-1.75300
X3.08615 Y-1.75300
X3.08615 Y-1.75200
X3.07915 Y-1.75200
X3.07915 Y-1.75100
X3.07615 Y-1.75100
X3.07615 Y-1.75000
X3.07315 Y-1.75000
X3.07315 Y-1.74900
X3.06815 Y-1.74900
X3.06815 Y-1.74800
X3.06615 Y-1.74800
X3.06615 Y-1.74700
X3.06415 Y-1.74700
X3.06415 Y-1.74600
X3.06315 Y-1.74600
X3.06315 Y-1.74500
X3.06115 Y-1.74500
X3.06115 Y-1.74400
X3.05915 Y-1.74400
X3.05915 Y-1.74300
X3.05815 Y-1.74300
X3.05815 Y-1.74200
X3.05615 Y-1.74200
X3.05615 Y-1.74100
X3.05515 Y-1.74100
X3.05515 Y-1.74000
X3.05415 Y-1.74000
X3.05415 Y-1.73900
X3.05215 Y-1.73900
X3.05215 Y-1.73800
X3.05115 Y-1.73800
X3.05115 Y-1.73700
X3.05015 Y-1.73700
X3.05015 Y-1.73500
X3.04915 Y-1.73500
X3.04915 Y-1.73400
X3.04815 Y-1.73400
X3.04815 Y-1.73300
X3.04715 Y-1.73300
X3.04715 Y-1.73200
X3.04615 Y-1.73200
X3.04615 Y-1.73000
X3.04515 Y-1.73000
X3.04515 Y-1.72900
X3.04415 Y-1.72900
X3.04415 Y-1.72700
X3.04315 Y-1.72700
X3.04315 Y-1.72500
X3.04215 Y-1.72500
X3.04215 Y-1.72400
X3.04115 Y-1.72400
X3.04115 Y-1.72200
X3.04015 Y-1.72200
X3.04015 Y-1.72000
X3.03915 Y-1.72000
X3.03915 Y-1.71700
X3.03815 Y-1.71700
X3.03815 Y-1.71200
X3.03715 Y-1.71200
X3.03715 Y-1.71000
X3.03615 Y-1.71000
X3.03615 Y-1.68300
X3.03715 Y-1.68300
X3.03715 Y-1.67500
X3.03615 Y-1.67500
X3.03615 Y-1.67200
X3.03515 Y-1.67200
X3.03515 Y-1.67000
X3.03415 Y-1.67000
X3.03415 Y-1.66800
X3.03315 Y-1.66800
X3.03315 Y-1.66700
X3.03215 Y-1.66700
X3.03215 Y-1.66600
X3.03115 Y-1.66600
X3.03115 Y-1.66500
X3.03015 Y-1.66500
X3.03015 Y-1.66400
X3.02915 Y-1.66400
X3.02915 Y-1.66300
X3.02815 Y-1.66300
X3.02815 Y-1.66200
X3.02715 Y-1.66200
X3.02715 Y-1.66100
X3.02615 Y-1.66100
X3.02615 Y-1.66000
X3.02515 Y-1.66000
X3.02515 Y-1.65900
X3.02415 Y-1.65900
X3.02415 Y-1.65800
X3.02315 Y-1.65800
X3.02315 Y-1.65700
X3.02215 Y-1.65700
X3.02215 Y-1.65600
X3.02115 Y-1.65600
X3.02115 Y-1.65500
X3.02015 Y-1.65500
X3.02015 Y-1.65400
X3.01915 Y-1.65400
X3.01915 Y-1.65300
X3.01815 Y-1.65300
X3.01815 Y-1.65200
X3.01715 Y-1.65200
X3.01715 Y-1.65100
X3.01615 Y-1.65100
X3.01615 Y-1.65000
X3.01515 Y-1.65000
X3.01515 Y-1.64900
X3.01415 Y-1.64900
X3.01415 Y-1.64800
X3.01315 Y-1.64800
X3.01315 Y-1.64700
X3.01215 Y-1.64700
X3.01215 Y-1.64600
X3.01115 Y-1.64600
X3.01115 Y-1.64500
X3.01015 Y-1.64500
X3.01015 Y-1.64400
X3.00915 Y-1.64400
X3.00915 Y-1.64300
X3.00815 Y-1.64300
X3.00815 Y-1.64200
X3.00715 Y-1.64200
X3.00715 Y-1.64100
X3.00615 Y-1.64100
X3.00615 Y-1.64000
X3.00515 Y-1.64000
X3.00515 Y-1.63900
X3.00415 Y-1.63900
X3.00415 Y-1.63800
X3.00315 Y-1.63800
X3.00315 Y-1.63700
X3.00215 Y-1.63700
X3.00215 Y-1.63600
X3.00115 Y-1.63600
X3.00115 Y-1.63500
X3.00015 Y-1.63500
X3.00015 Y-1.63400
X2.99915 Y-1.63400
X2.99915 Y-1.63300
X2.99815 Y-1.63300
X2.99815 Y-1.63200
X2.99715 Y-1.63200
X2.99715 Y-1.63100
X2.99615 Y-1.63100
X2.99615 Y-1.63000
X2.99515 Y-1.63000
X2.99515 Y-1.62900
X2.99415 Y-1.62900
X2.99415 Y-1.62800
X2.99315 Y-1.62800
X2.99315 Y-1.62700
X2.99215 Y-1.62700
X2.99215 Y-1.62600
X2.99115 Y-1.62600
X2.99115 Y-1.62500
X2.99015 Y-1.62500
X2.99015 Y-1.62400
X2.98915 Y-1.62400
X2.98915 Y-1.62300
X2.98815 Y-1.62300
X2.98815 Y-1.62200
X2.98715 Y-1.62200
X2.98715 Y-1.62100
X2.98615 Y-1.62100
X2.98615 Y-1.62000
X2.98515 Y-1.62000
X2.98515 Y-1.61900
X2.98415 Y-1.61900
X2.98415 Y-1.61800
X2.98315 Y-1.61800
X2.98315 Y-1.61700
X2.98215 Y-1.61700
X2.98215 Y-1.61600
X2.98115 Y-1.61600
X2.98115 Y-1.61500
X2.98015 Y-1.61500
X2.98015 Y-1.61400
X2.97915 Y-1.61400
X2.97915 Y-1.61300
X2.97815 Y-1.61300
X2.97815 Y-1.61200
X2.97715 Y-1.61200
X2.97715 Y-1.61100
X2.97615 Y-1.61100
X2.97615 Y-1.61000
X2.97515 Y-1.61000
X2.97515 Y-1.60900
X2.97415 Y-1.60900
X2.97415 Y-1.60800
X2.97315 Y-1.60800
X2.97315 Y-1.60700
X2.97215 Y-1.60700
X2.97215 Y-1.60600
X2.97115 Y-1.60600
X2.97115 Y-1.60500
X2.97015 Y-1.60500
X2.97015 Y-1.60400
X2.96915 Y-1.60400
X2.96915 Y-1.60300
X2.96815 Y-1.60300
X2.96815 Y-1.60200
X2.96715 Y-1.60200
X2.96715 Y-1.60100
X2.96615 Y-1.60100
X2.96615 Y-1.60000
X2.96515 Y-1.60000
X2.96515 Y-1.59900
X2.96415 Y-1.59900
X2.96415 Y-1.59800
X2.96315 Y-1.59800
X2.96315 Y-1.59700
X2.96215 Y-1.59700
X2.96215 Y-1.59600
X2.96115 Y-1.59600
X2.96115 Y-1.59500
X2.96015 Y-1.59500
X2.96015 Y-1.59400
X2.95915 Y-1.59400
X2.95915 Y-1.59300
X2.95815 Y-1.59300
X2.95815 Y-1.59200
X2.95715 Y-1.59200
X2.95715 Y-1.59100
X2.95615 Y-1.59100
X2.95615 Y-1.59000
X2.95515 Y-1.59000
X2.95515 Y-1.58900
X2.95415 Y-1.58900
X2.95415 Y-1.58800
X2.95315 Y-1.58800
X2.95315 Y-1.58700
X2.95215 Y-1.58700
X2.95215 Y-1.58600
X2.95115 Y-1.58600
X2.95115 Y-1.58500
X2.95015 Y-1.58500
X2.95015 Y-1.58400
X2.94915 Y-1.58400
X2.94915 Y-1.58300
X2.94815 Y-1.58300
X2.94815 Y-1.58200
X2.94715 Y-1.58200
X2.94715 Y-1.58100
X2.94615 Y-1.58100
X2.94615 Y-1.58000
X2.94515 Y-1.58000
X2.94515 Y-1.57900
X2.94415 Y-1.57900
X2.94415 Y-1.57800
X2.94315 Y-1.57800
X2.94315 Y-1.57700
X2.94215 Y-1.57700
X2.94215 Y-1.57600
X2.94115 Y-1.57600
X2.94115 Y-1.57500
X2.94015 Y-1.57500
X2.94015 Y-1.57400
X2.93915 Y-1.57400
X2.93915 Y-1.57300
X2.93815 Y-1.57300
X2.93815 Y-1.57200
X2.93715 Y-1.57200
X2.93715 Y-1.57100
X2.93615 Y-1.57100
X2.93615 Y-1.57000
X2.93515 Y-1.57000
X2.93515 Y-1.56900
X2.93415 Y-1.56900
X2.93415 Y-1.56800
X2.93315 Y-1.56800
X2.93315 Y-1.56700
X2.93215 Y-1.56700
X2.93215 Y-1.56600
X2.93115 Y-1.56600
X2.93115 Y-1.56500
X2.93015 Y-1.56500
X2.93015 Y-1.56400
X2.92915 Y-1.56400
X2.92915 Y-1.56300
X2.92815 Y-1.56300
X2.92815 Y-1.56200
X2.92715 Y-1.56200
X2.92715 Y-1.56100
X2.92615 Y-1.56100
X2.92615 Y-1.56000
X2.92515 Y-1.56000
X2.92515 Y-1.55900
X2.92415 Y-1.55900
X2.92415 Y-1.55800
X2.92315 Y-1.55800
X2.92315 Y-1.55700
X2.92215 Y-1.55700
X2.92215 Y-1.55600
X2.92115 Y-1.55600
X2.92115 Y-1.55500
X2.92015 Y-1.55500
X2.92015 Y-1.55400
X2.91915 Y-1.55400
X2.91915 Y-1.55300
X2.91815 Y-1.55300
X2.91815 Y-1.55200
X2.91715 Y-1.55200
X2.91715 Y-1.55100
X2.91615 Y-1.55100
X2.91615 Y-1.55000
X2.91515 Y-1.55000
X2.91515 Y-1.54900
X2.91415 Y-1.54900
X2.91415 Y-1.54800
X2.91315 Y-1.54800
X2.91315 Y-1.54700
X2.91215 Y-1.54700
X2.91215 Y-1.54600
X2.91115 Y-1.54600
X2.91115 Y-1.54500
X2.91015 Y-1.54500
X2.91015 Y-1.54400
X2.90915 Y-1.54400
X2.90915 Y-1.54300
X2.90815 Y-1.54300
X2.90815 Y-1.54200
X2.90715 Y-1.54200
X2.90715 Y-1.54100
X2.90615 Y-1.54100
X2.90615 Y-1.54000
X2.90515 Y-1.54000
X2.90515 Y-1.53900
X2.90415 Y-1.53900
X2.90415 Y-1.53800
X2.90315 Y-1.53800
X2.90315 Y-1.53700
X2.90215 Y-1.53700
X2.90215 Y-1.53600
X2.90115 Y-1.53600
X2.90115 Y-1.53500
X2.90015 Y-1.53500
X2.90015 Y-1.53400
X2.89915 Y-1.53400
X2.89915 Y-1.53300
X2.89815 Y-1.53300
X2.89815 Y-1.53200
X2.89715 Y-1.53200
X2.89715 Y-1.53100
X2.89615 Y-1.53100
X2.89615 Y-1.53000
X2.89515 Y-1.53000
X2.89515 Y-1.52900
X2.89415 Y-1.52900
X2.89415 Y-1.52800
X2.89315 Y-1.52800
X2.89315 Y-1.52700
X2.89215 Y-1.52700
X2.89215 Y-1.52600
X2.89115 Y-1.52600
X2.89115 Y-1.52500
X2.89015 Y-1.52500
X2.89015 Y-1.52400
X2.88915 Y-1.52400
X2.88915 Y-1.52300
X2.88815 Y-1.52300
X2.88815 Y-1.52200
X2.88715 Y-1.52200
X2.88715 Y-1.52100
X2.88615 Y-1.52100
X2.88615 Y-1.52000
X2.88515 Y-1.52000
X2.88515 Y-1.51900
X2.88415 Y-1.51900
X2.88415 Y-1.51800
X2.88315 Y-1.51800
X2.88315 Y-1.51700
X2.88215 Y-1.51700
X2.88215 Y-1.51600
X2.88115 Y-1.51600
X2.88115 Y-1.51500
X2.88015 Y-1.51500
X2.88015 Y-1.51400
X2.87915 Y-1.51400
X2.87915 Y-1.51300
X2.87815 Y-1.51300
X2.87815 Y-1.51200
X2.87715 Y-1.51200
X2.87715 Y-1.51100
X2.87615 Y-1.51100
X2.87615 Y-1.51000
X2.87515 Y-1.51000
X2.87515 Y-1.50900
X2.87415 Y-1.50900
X2.87415 Y-1.50800
X2.87315 Y-1.50800
X2.87315 Y-1.50700
X2.87215 Y-1.50700
X2.87215 Y-1.50600
X2.87115 Y-1.50600
X2.87115 Y-1.50500
X2.87015 Y-1.50500
X2.87015 Y-1.50400
X2.86915 Y-1.50400
X2.86915 Y-1.50300
X2.86815 Y-1.50300
X2.86815 Y-1.50200
X2.86715 Y-1.50200
X2.86715 Y-1.50100
X2.86615 Y-1.50100
X2.86615 Y-1.50000
X2.86515 Y-1.50000
X2.86515 Y-1.49900
X2.86415 Y-1.49900
X2.86415 Y-1.49800
X2.86315 Y-1.49800
X2.86315 Y-1.49700
X2.86215 Y-1.49700
X2.86215 Y-1.49600
X2.86115 Y-1.49600
X2.86115 Y-1.49500
X2.86015 Y-1.49500
X2.86015 Y-1.49400
X2.85915 Y-1.49400
X2.85915 Y-1.49300
X2.85815 Y-1.49300
X2.85815 Y-1.49200
X2.85715 Y-1.49200
X2.85715 Y-1.49100
X2.85615 Y-1.49100
X2.85615 Y-1.49000
X2.85515 Y-1.49000
X2.85515 Y-1.48900
X2.85415 Y-1.48900
X2.85415 Y-1.48800
X2.85315 Y-1.48800
X2.85315 Y-1.48700
X2.85215 Y-1.48700
X2.85215 Y-1.48600
X2.85115 Y-1.48600
X2.85115 Y-1.48500
X2.85015 Y-1.48500
X2.85015 Y-1.48400
X2.84915 Y-1.48400
X2.84915 Y-1.48300
X2.84815 Y-1.48300
X2.84815 Y-1.48200
X2.84715 Y-1.48200
X2.84715 Y-1.48100
X2.84615 Y-1.48100
X2.84615 Y-1.48000
X2.84515 Y-1.48000
X2.84515 Y-1.47900
X2.84415 Y-1.47900
X2.84415 Y-1.47800
X2.84315 Y-1.47800
X2.84315 Y-1.47700
X2.84215 Y-1.47700
X2.84215 Y-1.47600
X2.84115 Y-1.47600
X2.84115 Y-1.47500
X2.84015 Y-1.47500
X2.84015 Y-1.47400
X2.83915 Y-1.47400
X2.83915 Y-1.47300
X2.83815 Y-1.47300
X2.83815 Y-1.47200
X2.83715 Y-1.47200
X2.83715 Y-1.47100
X2.83615 Y-1.47100
X2.83615 Y-1.47000
X2.83515 Y-1.47000
X2.83515 Y-1.46900
X2.83415 Y-1.46900
X2.83415 Y-1.46800
X2.83315 Y-1.46800
X2.83315 Y-1.46700
X2.83215 Y-1.46700
X2.83215 Y-1.46600
X2.83115 Y-1.46600
X2.83115 Y-1.46500
X2.83015 Y-1.46500
X2.83015 Y-1.46400
X2.82915 Y-1.46400
X2.82915 Y-1.46300
X2.82815 Y-1.46300
X2.82815 Y-1.46200
X2.82715 Y-1.46200
X2.82715 Y-1.46100
X2.82615 Y-1.46100
X2.82615 Y-1.46000
X2.82515 Y-1.46000
X2.82515 Y-1.45900
X2.82415 Y-1.45900
X2.82415 Y-1.45800
X2.82315 Y-1.45800
X2.82315 Y-1.45700
X2.82215 Y-1.45700
X2.82215 Y-1.45600
X2.82115 Y-1.45600
X2.82115 Y-1.45500
X2.82015 Y-1.45500
X2.82015 Y-1.45400
X2.81915 Y-1.45400
X2.81915 Y-1.45300
X2.81815 Y-1.45300
X2.81815 Y-1.45200
X2.81715 Y-1.45200
